%
(Header)
(Generated by gcodetools from Inkscape.)
(Using default header. To add your own header create file "header" in the output dir.)
M3
(Header end.)
G21 (All units in mm)

(Start cutting path id: path159)
(Change tool to Default tool)

G00 Z2.500000
G00 X65.715000 Y77.375000

G01 Z-0.062500 F100.0(Penetrate)
G01 X62.464000 Y77.375000 Z-0.062500 F400.000000
G00 Z2.500000

(End cutting path id: path159)


(Start cutting path id: path158)
(Change tool to Default tool)

G00 Z2.500000
G00 X62.464000 Y77.375000

G01 Z-0.062500 F100.0(Penetrate)
G01 X57.215000 Y72.126000 Z-0.062500 F400.000000
G00 Z2.500000

(End cutting path id: path158)


(Start cutting path id: path157)
(Change tool to Default tool)

G00 Z2.500000
G00 X57.215000 Y72.126000

G01 Z-0.062500 F100.0(Penetrate)
G01 X57.215000 Y59.975000 Z-0.062500 F400.000000
G00 Z2.500000

(End cutting path id: path157)


(Start cutting path id: path156)
(Change tool to Default tool)

G00 Z2.500000
G00 X57.215000 Y59.975000

G01 Z-0.062500 F100.0(Penetrate)
G01 X63.715000 Y53.475000 Z-0.062500 F400.000000
G00 Z2.500000

(End cutting path id: path156)


(Start cutting path id: path155)
(Change tool to Default tool)

G00 Z2.500000
G00 X63.715000 Y53.475000

G01 Z-0.062500 F100.0(Penetrate)
G01 X110.715000 Y53.475000 Z-0.062500 F400.000000
G00 Z2.500000

(End cutting path id: path155)


(Start cutting path id: path154)
(Change tool to Default tool)

G00 Z2.500000
G00 X110.715000 Y53.475000

G01 Z-0.062500 F100.0(Penetrate)
G01 X117.715000 Y60.475000 Z-0.062500 F400.000000
G00 Z2.500000

(End cutting path id: path154)


(Start cutting path id: path153)
(Change tool to Default tool)

G00 Z2.500000
G00 X117.715000 Y60.475000

G01 Z-0.062500 F100.0(Penetrate)
G01 X117.715000 Y134.475000 Z-0.062500 F400.000000
G00 Z2.500000

(End cutting path id: path153)


(Start cutting path id: path152)
(Change tool to Default tool)

G00 Z2.500000
G00 X117.715000 Y134.475000

G01 Z-0.062500 F100.0(Penetrate)
G01 X104.715000 Y147.475000 Z-0.062500 F400.000000
G00 Z2.500000

(End cutting path id: path152)


(Start cutting path id: path151)
(Change tool to Default tool)

G00 Z2.500000
G00 X104.715000 Y147.475000

G01 Z-0.062500 F100.0(Penetrate)
G01 X87.128800 Y147.475000 Z-0.062500 F400.000000
G00 Z2.500000

(End cutting path id: path151)


(Start cutting path id: path150)
(Change tool to Default tool)

G00 Z2.500000
G00 X87.128800 Y147.475000

G01 Z-0.062500 F100.0(Penetrate)
G01 X83.555000 Y143.901200 Z-0.062500 F400.000000
G00 Z2.500000

(End cutting path id: path150)


(Start cutting path id: path149)
(Change tool to Default tool)

G00 Z2.500000
G00 X83.555000 Y143.901200

G01 Z-0.062500 F100.0(Penetrate)
G01 X83.555000 Y142.975000 Z-0.062500 F400.000000
G00 Z2.500000

(End cutting path id: path149)


(Start cutting path id: circle33)
(Change tool to Default tool)

G00 Z2.500000
G00 X82.705000 Y142.975000

G01 Z-0.062500 F100.0(Penetrate)
G03 X82.953959 Y142.373959 Z-0.062500 I0.850000 J0.000000 F400.000000
G03 X83.555000 Y142.125000 Z-0.062500 I0.601041 J0.601041
G03 X84.156041 Y142.373959 Z-0.062500 I-0.000000 J0.850000
G03 X84.405000 Y142.975000 Z-0.062500 I-0.601041 J0.601041
G03 X84.156041 Y143.576041 Z-0.062500 I-0.850000 J-0.000000
G03 X83.555000 Y143.825000 Z-0.062500 I-0.601041 J-0.601041
G03 X82.953959 Y143.576041 Z-0.062500 I0.000000 J-0.850000
G03 X82.705000 Y142.975000 Z-0.062500 I0.601041 J-0.601041
G01 X82.705000 Y142.975000 Z-0.062500
G00 Z2.500000

(End cutting path id: circle33)


(Start cutting path id: path61)
(Change tool to Default tool)

G00 Z2.500000
G00 X81.015000 Y144.177100

G01 Z-0.062500 F100.0(Penetrate)
G01 X81.015000 Y142.975000 Z-0.062500 F400.000000
G00 Z2.500000

(End cutting path id: path61)


(Start cutting path id: circle34)
(Change tool to Default tool)

G00 Z2.500000
G00 X80.165000 Y142.975000

G01 Z-0.062500 F100.0(Penetrate)
G03 X80.413959 Y142.373959 Z-0.062500 I0.850000 J0.000000 F400.000000
G03 X81.015000 Y142.125000 Z-0.062500 I0.601041 J0.601041
G03 X81.616041 Y142.373959 Z-0.062500 I-0.000000 J0.850000
G03 X81.865000 Y142.975000 Z-0.062500 I-0.601041 J0.601041
G03 X81.616041 Y143.576041 Z-0.062500 I-0.850000 J-0.000000
G03 X81.015000 Y143.825000 Z-0.062500 I-0.601041 J-0.601041
G03 X80.413959 Y143.576041 Z-0.062500 I0.000000 J-0.850000
G03 X80.165000 Y142.975000 Z-0.062500 I0.601041 J-0.601041
G01 X80.165000 Y142.975000 Z-0.062500
G00 Z2.500000

(End cutting path id: circle34)


(Start cutting path id: path93)
(Change tool to Default tool)

G00 Z2.500000
G00 X78.475000 Y143.194100

G01 Z-0.062500 F100.0(Penetrate)
G01 X78.475000 Y142.975000 Z-0.062500 F400.000000
G00 Z2.500000

(End cutting path id: path93)


(Start cutting path id: circle35)
(Change tool to Default tool)

G00 Z2.500000
G00 X77.624990 Y142.975000

G01 Z-0.062500 F100.0(Penetrate)
G03 X77.873949 Y142.373959 Z-0.062500 I0.850000 J0.000000 F400.000000
G03 X78.474990 Y142.125000 Z-0.062500 I0.601041 J0.601041
G03 X79.076031 Y142.373959 Z-0.062500 I-0.000000 J0.850000
G03 X79.324990 Y142.975000 Z-0.062500 I-0.601041 J0.601041
G03 X79.076031 Y143.576041 Z-0.062500 I-0.850000 J-0.000000
G03 X78.474990 Y143.825000 Z-0.062500 I-0.601041 J-0.601041
G03 X77.873949 Y143.576041 Z-0.062500 I0.000000 J-0.850000
G03 X77.624990 Y142.975000 Z-0.062500 I0.601041 J-0.601041
G01 X77.624990 Y142.975000 Z-0.062500
G00 Z2.500000

(End cutting path id: circle35)


(Start cutting path id: path62)
(Change tool to Default tool)

G00 Z2.500000
G00 X80.266100 Y144.926000

G01 Z-0.062500 F100.0(Penetrate)
G01 X81.015000 Y144.177100 Z-0.062500 F400.000000
G00 Z2.500000

(End cutting path id: path62)


(Start cutting path id: circle32)
(Change tool to Default tool)

G00 Z2.500000
G00 X85.245000 Y142.975000

G01 Z-0.062500 F100.0(Penetrate)
G03 X85.493959 Y142.373959 Z-0.062500 I0.850000 J0.000000 F400.000000
G03 X86.095000 Y142.125000 Z-0.062500 I0.601041 J0.601041
G03 X86.696041 Y142.373959 Z-0.062500 I-0.000000 J0.850000
G03 X86.945000 Y142.975000 Z-0.062500 I-0.601041 J0.601041
G03 X86.696041 Y143.576041 Z-0.062500 I-0.850000 J-0.000000
G03 X86.095000 Y143.825000 Z-0.062500 I-0.601041 J-0.601041
G03 X85.493959 Y143.576041 Z-0.062500 I0.000000 J-0.850000
G03 X85.245000 Y142.975000 Z-0.062500 I0.601041 J-0.601041
G01 X85.245000 Y142.975000 Z-0.062500
G00 Z2.500000

(End cutting path id: circle32)


(Start cutting path id: path71)
(Change tool to Default tool)

G00 Z2.500000
G00 X86.095000 Y144.177100

G01 Z-0.062500 F100.0(Penetrate)
G01 X86.095000 Y142.975000 Z-0.062500 F400.000000
G00 Z2.500000

(End cutting path id: path71)


(Start cutting path id: circle31)
(Change tool to Default tool)

G00 Z2.500000
G00 X87.785000 Y142.975000

G01 Z-0.062500 F100.0(Penetrate)
G03 X88.033959 Y142.373959 Z-0.062500 I0.850000 J0.000000 F400.000000
G03 X88.635000 Y142.125000 Z-0.062500 I0.601041 J0.601041
G03 X89.236041 Y142.373959 Z-0.062500 I-0.000000 J0.850000
G03 X89.485000 Y142.975000 Z-0.062500 I-0.601041 J0.601041
G03 X89.236041 Y143.576041 Z-0.062500 I-0.850000 J-0.000000
G03 X88.635000 Y143.825000 Z-0.062500 I-0.601041 J-0.601041
G03 X88.033959 Y143.576041 Z-0.062500 I0.000000 J-0.850000
G03 X87.785000 Y142.975000 Z-0.062500 I0.601041 J-0.601041
G01 X87.785000 Y142.975000 Z-0.062500
G00 Z2.500000

(End cutting path id: circle31)


(Start cutting path id: path72)
(Change tool to Default tool)

G00 Z2.500000
G00 X88.635000 Y142.975000

G01 Z-0.062500 F100.0(Penetrate)
G01 X88.635000 Y139.945000 Z-0.062500 F400.000000
G00 Z2.500000

(End cutting path id: path72)


(Start cutting path id: path73)
(Change tool to Default tool)

G00 Z2.500000
G00 X88.635000 Y139.945000

G01 Z-0.062500 F100.0(Penetrate)
G01 X72.665000 Y123.975000 Z-0.062500 F400.000000
G00 Z2.500000

(End cutting path id: path73)


(Start cutting path id: path86)
(Change tool to Default tool)

G00 Z2.500000
G00 X72.665000 Y123.975000

G01 Z-0.062500 F100.0(Penetrate)
G01 X74.432800 Y123.975000 Z-0.062500 F400.000000
G00 Z2.500000

(End cutting path id: path86)


(Start cutting path id: path87)
(Change tool to Default tool)

G00 Z2.500000
G00 X74.432800 Y123.975000

G01 Z-0.062500 F100.0(Penetrate)
G01 X77.715000 Y120.692800 Z-0.062500 F400.000000
G00 Z2.500000

(End cutting path id: path87)


(Start cutting path id: path88)
(Change tool to Default tool)

G00 Z2.500000
G00 X77.715000 Y120.692800

G01 Z-0.062500 F100.0(Penetrate)
G01 X77.715000 Y117.555000 Z-0.062500 F400.000000
G00 Z2.500000

(End cutting path id: path88)


(Start cutting path id: circle26)
(Change tool to Default tool)

G00 Z2.500000
G00 X77.015000 Y117.555002

G01 Z-0.062500 F100.0(Penetrate)
G03 X77.068284 Y117.287124 Z-0.062500 I0.700000 J0.000000 F400.000000
G03 X77.220025 Y117.060027 Z-0.062500 I0.646716 J0.267878
G03 X77.447122 Y116.908286 Z-0.062500 I0.494975 J0.494975
G03 X77.715000 Y116.855002 Z-0.062500 I0.267878 J0.646716
G03 X77.982878 Y116.908286 Z-0.062500 I0.000000 J0.700000
G03 X78.209975 Y117.060027 Z-0.062500 I-0.267878 J0.646716
G03 X78.361716 Y117.287124 Z-0.062500 I-0.494975 J0.494975
G03 X78.415000 Y117.555002 Z-0.062500 I-0.646716 J0.267878
G03 X78.361716 Y117.822880 Z-0.062500 I-0.700000 J0.000000
G03 X78.209975 Y118.049977 Z-0.062500 I-0.646716 J-0.267878
G03 X77.982878 Y118.201718 Z-0.062500 I-0.494975 J-0.494975
G03 X77.715000 Y118.255002 Z-0.062500 I-0.267878 J-0.646716
G03 X77.447122 Y118.201718 Z-0.062500 I-0.000000 J-0.700000
G03 X77.220025 Y118.049977 Z-0.062500 I0.267878 J-0.646716
G03 X77.068284 Y117.822880 Z-0.062500 I0.494975 J-0.494975
G03 X77.015000 Y117.555002 Z-0.062500 I0.646716 J-0.267878
G01 X77.015000 Y117.555002 Z-0.062500
G00 Z2.500000

(End cutting path id: circle26)


(Start cutting path id: circle25)
(Change tool to Default tool)

G00 Z2.500000
G00 X77.015000 Y112.475000

G01 Z-0.062500 F100.0(Penetrate)
G03 X77.068284 Y112.207122 Z-0.062500 I0.700000 J0.000000 F400.000000
G03 X77.220025 Y111.980025 Z-0.062500 I0.646716 J0.267878
G03 X77.447122 Y111.828284 Z-0.062500 I0.494975 J0.494975
G03 X77.715000 Y111.775000 Z-0.062500 I0.267878 J0.646716
G03 X77.982878 Y111.828284 Z-0.062500 I0.000000 J0.700000
G03 X78.209975 Y111.980025 Z-0.062500 I-0.267878 J0.646716
G03 X78.361716 Y112.207122 Z-0.062500 I-0.494975 J0.494975
G03 X78.415000 Y112.475000 Z-0.062500 I-0.646716 J0.267878
G03 X78.361716 Y112.742878 Z-0.062500 I-0.700000 J0.000000
G03 X78.209975 Y112.969975 Z-0.062500 I-0.646716 J-0.267878
G03 X77.982878 Y113.121716 Z-0.062500 I-0.494975 J-0.494975
G03 X77.715000 Y113.175000 Z-0.062500 I-0.267878 J-0.646716
G03 X77.447122 Y113.121716 Z-0.062500 I-0.000000 J-0.700000
G03 X77.220025 Y112.969975 Z-0.062500 I0.267878 J-0.646716
G03 X77.068284 Y112.742878 Z-0.062500 I0.494975 J-0.494975
G03 X77.015000 Y112.475000 Z-0.062500 I0.646716 J-0.267878
G01 X77.015000 Y112.475000 Z-0.062500
G00 Z2.500000

(End cutting path id: circle25)


(Start cutting path id: path84)
(Change tool to Default tool)

G00 Z2.500000
G00 X77.715000 Y112.475000

G01 Z-0.062500 F100.0(Penetrate)
G01 X77.715000 Y109.975000 Z-0.062500 F400.000000
G00 Z2.500000

(End cutting path id: path84)


(Start cutting path id: path85)
(Change tool to Default tool)

G00 Z2.500000
G00 X77.715000 Y109.975000

G01 Z-0.062500 F100.0(Penetrate)
G01 X72.665000 Y104.925000 Z-0.062500 F400.000000
G00 Z2.500000

(End cutting path id: path85)


(Start cutting path id: path81)
(Change tool to Default tool)

G00 Z2.500000
G00 X72.665000 Y104.925000

G01 Z-0.062500 F100.0(Penetrate)
G01 X74.432800 Y104.925000 Z-0.062500 F400.000000
G00 Z2.500000

(End cutting path id: path81)


(Start cutting path id: path82)
(Change tool to Default tool)

G00 Z2.500000
G00 X74.432800 Y104.925000

G01 Z-0.062500 F100.0(Penetrate)
G01 X78.215000 Y101.142800 Z-0.062500 F400.000000
G00 Z2.500000

(End cutting path id: path82)


(Start cutting path id: path83)
(Change tool to Default tool)

G00 Z2.500000
G00 X78.215000 Y101.142800

G01 Z-0.062500 F100.0(Penetrate)
G01 X78.215000 Y99.055000 Z-0.062500 F400.000000
G00 Z2.500000

(End cutting path id: path83)


(Start cutting path id: circle28)
(Change tool to Default tool)

G00 Z2.500000
G00 X77.515000 Y99.055002

G01 Z-0.062500 F100.0(Penetrate)
G03 X77.568284 Y98.787124 Z-0.062500 I0.700000 J-0.000000 F400.000000
G03 X77.720025 Y98.560027 Z-0.062500 I0.646716 J0.267878
G03 X77.947122 Y98.408286 Z-0.062500 I0.494975 J0.494975
G03 X78.215000 Y98.355002 Z-0.062500 I0.267878 J0.646716
G03 X78.482878 Y98.408286 Z-0.062500 I0.000000 J0.700000
G03 X78.709975 Y98.560027 Z-0.062500 I-0.267878 J0.646716
G03 X78.861716 Y98.787124 Z-0.062500 I-0.494975 J0.494975
G03 X78.915000 Y99.055002 Z-0.062500 I-0.646716 J0.267878
G03 X78.861716 Y99.322880 Z-0.062500 I-0.700000 J0.000000
G03 X78.709975 Y99.549977 Z-0.062500 I-0.646716 J-0.267878
G03 X78.482878 Y99.701718 Z-0.062500 I-0.494975 J-0.494975
G03 X78.215000 Y99.755002 Z-0.062500 I-0.267878 J-0.646716
G03 X77.947122 Y99.701718 Z-0.062500 I-0.000000 J-0.700000
G03 X77.720025 Y99.549977 Z-0.062500 I0.267878 J-0.646716
G03 X77.568284 Y99.322880 Z-0.062500 I0.494975 J-0.494975
G03 X77.515000 Y99.055002 Z-0.062500 I0.646716 J-0.267878
G01 X77.515000 Y99.055002 Z-0.062500
G00 Z2.500000

(End cutting path id: circle28)


(Start cutting path id: circle27)
(Change tool to Default tool)

G00 Z2.500000
G00 X77.515000 Y93.975000

G01 Z-0.062500 F100.0(Penetrate)
G03 X77.568284 Y93.707122 Z-0.062500 I0.700000 J0.000000 F400.000000
G03 X77.720025 Y93.480025 Z-0.062500 I0.646716 J0.267878
G03 X77.947122 Y93.328284 Z-0.062500 I0.494975 J0.494975
G03 X78.215000 Y93.275000 Z-0.062500 I0.267878 J0.646716
G03 X78.482878 Y93.328284 Z-0.062500 I0.000000 J0.700000
G03 X78.709975 Y93.480025 Z-0.062500 I-0.267878 J0.646716
G03 X78.861716 Y93.707122 Z-0.062500 I-0.494975 J0.494975
G03 X78.915000 Y93.975000 Z-0.062500 I-0.646716 J0.267878
G03 X78.861716 Y94.242878 Z-0.062500 I-0.700000 J0.000000
G03 X78.709975 Y94.469975 Z-0.062500 I-0.646716 J-0.267878
G03 X78.482878 Y94.621716 Z-0.062500 I-0.494975 J-0.494975
G03 X78.215000 Y94.675000 Z-0.062500 I-0.267878 J-0.646716
G03 X77.947122 Y94.621716 Z-0.062500 I-0.000000 J-0.700000
G03 X77.720025 Y94.469975 Z-0.062500 I0.267878 J-0.646716
G03 X77.568284 Y94.242878 Z-0.062500 I0.494975 J-0.494975
G03 X77.515000 Y93.975000 Z-0.062500 I0.646716 J-0.267878
G01 X77.515000 Y93.975000 Z-0.062500
G00 Z2.500000

(End cutting path id: circle27)


(Start cutting path id: path79)
(Change tool to Default tool)

G00 Z2.500000
G00 X78.215000 Y93.975000

G01 Z-0.062500 F100.0(Penetrate)
G01 X78.215000 Y91.425000 Z-0.062500 F400.000000
G00 Z2.500000

(End cutting path id: path79)


(Start cutting path id: path80)
(Change tool to Default tool)

G00 Z2.500000
G00 X78.215000 Y91.425000

G01 Z-0.062500 F100.0(Penetrate)
G01 X72.665000 Y85.875000 Z-0.062500 F400.000000
G00 Z2.500000

(End cutting path id: path80)


(Start cutting path id: path76)
(Change tool to Default tool)

G00 Z2.500000
G00 X72.665000 Y85.875000

G01 Z-0.062500 F100.0(Penetrate)
G01 X74.432800 Y85.875000 Z-0.062500 F400.000000
G00 Z2.500000

(End cutting path id: path76)


(Start cutting path id: path77)
(Change tool to Default tool)

G00 Z2.500000
G00 X74.432800 Y85.875000

G01 Z-0.062500 F100.0(Penetrate)
G01 X78.215000 Y82.092800 Z-0.062500 F400.000000
G00 Z2.500000

(End cutting path id: path77)


(Start cutting path id: path78)
(Change tool to Default tool)

G00 Z2.500000
G00 X78.215000 Y82.092800

G01 Z-0.062500 F100.0(Penetrate)
G01 X78.215000 Y79.475000 Z-0.062500 F400.000000
G00 Z2.500000

(End cutting path id: path78)


(Start cutting path id: circle57)
(Change tool to Default tool)

G00 Z2.500000
G00 X77.515000 Y79.475000

G01 Z-0.062500 F100.0(Penetrate)
G03 X77.568284 Y79.207122 Z-0.062500 I0.700000 J-0.000000 F400.000000
G03 X77.720025 Y78.980025 Z-0.062500 I0.646716 J0.267878
G03 X77.947122 Y78.828284 Z-0.062500 I0.494975 J0.494975
G03 X78.215000 Y78.775000 Z-0.062500 I0.267878 J0.646716
G03 X78.482878 Y78.828284 Z-0.062500 I0.000000 J0.700000
G03 X78.709975 Y78.980025 Z-0.062500 I-0.267878 J0.646716
G03 X78.861716 Y79.207122 Z-0.062500 I-0.494975 J0.494975
G03 X78.915000 Y79.475000 Z-0.062500 I-0.646716 J0.267878
G03 X78.861716 Y79.742878 Z-0.062500 I-0.700000 J0.000000
G03 X78.709975 Y79.969975 Z-0.062500 I-0.646716 J-0.267878
G03 X78.482878 Y80.121716 Z-0.062500 I-0.494975 J-0.494975
G03 X78.215000 Y80.175000 Z-0.062500 I-0.267878 J-0.646716
G03 X77.947122 Y80.121716 Z-0.062500 I-0.000000 J-0.700000
G03 X77.720025 Y79.969975 Z-0.062500 I0.267878 J-0.646716
G03 X77.568284 Y79.742878 Z-0.062500 I0.494975 J-0.494975
G03 X77.515000 Y79.475000 Z-0.062500 I0.646716 J-0.267878
G01 X77.515000 Y79.475000 Z-0.062500
G00 Z2.500000

(End cutting path id: circle57)


(Start cutting path id: circle56)
(Change tool to Default tool)

G00 Z2.500000
G00 X77.515000 Y74.395000

G01 Z-0.062500 F100.0(Penetrate)
G03 X77.568284 Y74.127122 Z-0.062500 I0.700000 J-0.000000 F400.000000
G03 X77.720025 Y73.900025 Z-0.062500 I0.646716 J0.267878
G03 X77.947122 Y73.748284 Z-0.062500 I0.494975 J0.494975
G03 X78.215000 Y73.695000 Z-0.062500 I0.267878 J0.646716
G03 X78.482878 Y73.748284 Z-0.062500 I0.000000 J0.700000
G03 X78.709975 Y73.900025 Z-0.062500 I-0.267878 J0.646716
G03 X78.861716 Y74.127122 Z-0.062500 I-0.494975 J0.494975
G03 X78.915000 Y74.395000 Z-0.062500 I-0.646716 J0.267878
G03 X78.861716 Y74.662878 Z-0.062500 I-0.700000 J0.000000
G03 X78.709975 Y74.889975 Z-0.062500 I-0.646716 J-0.267878
G03 X78.482878 Y75.041716 Z-0.062500 I-0.494975 J-0.494975
G03 X78.215000 Y75.095000 Z-0.062500 I-0.267878 J-0.646716
G03 X77.947122 Y75.041716 Z-0.062500 I-0.000000 J-0.700000
G03 X77.720025 Y74.889975 Z-0.062500 I0.267878 J-0.646716
G03 X77.568284 Y74.662878 Z-0.062500 I0.494975 J-0.494975
G03 X77.515000 Y74.395000 Z-0.062500 I0.646716 J-0.267878
G01 X77.515000 Y74.395000 Z-0.062500
G00 Z2.500000

(End cutting path id: circle56)


(Start cutting path id: path74)
(Change tool to Default tool)

G00 Z2.500000
G00 X78.215000 Y74.395000

G01 Z-0.062500 F100.0(Penetrate)
G01 X78.215000 Y72.375000 Z-0.062500 F400.000000
G00 Z2.500000

(End cutting path id: path74)


(Start cutting path id: path75)
(Change tool to Default tool)

G00 Z2.500000
G00 X78.215000 Y72.375000

G01 Z-0.062500 F100.0(Penetrate)
G01 X72.665000 Y66.825000 Z-0.062500 F400.000000
G00 Z2.500000

(End cutting path id: path75)


(Start cutting path id: circle1)
(Change tool to Default tool)

G00 Z2.500000
G00 X71.415000 Y66.825000

G01 Z-0.062500 F100.0(Penetrate)
G03 X71.510151 Y66.346646 Z-0.062500 I1.250000 J0.000000 F400.000000
G03 X71.781117 Y65.941117 Z-0.062500 I1.154849 J0.478354
G03 X72.186646 Y65.670151 Z-0.062500 I0.883883 J0.883883
G03 X72.665000 Y65.575000 Z-0.062500 I0.478354 J1.154849
G03 X73.143354 Y65.670151 Z-0.062500 I0.000000 J1.250000
G03 X73.548883 Y65.941117 Z-0.062500 I-0.478354 J1.154849
G03 X73.819849 Y66.346646 Z-0.062500 I-0.883883 J0.883883
G03 X73.915000 Y66.825000 Z-0.062500 I-1.154849 J0.478354
G03 X73.819849 Y67.303354 Z-0.062500 I-1.250000 J0.000000
G03 X73.548883 Y67.708883 Z-0.062500 I-1.154849 J-0.478354
G03 X73.143354 Y67.979849 Z-0.062500 I-0.883883 J-0.883883
G03 X72.665000 Y68.075000 Z-0.062500 I-0.478354 J-1.154849
G03 X72.186646 Y67.979849 Z-0.062500 I0.000000 J-1.250000
G03 X71.781117 Y67.708883 Z-0.062500 I0.478354 J-1.154849
G03 X71.510151 Y67.303354 Z-0.062500 I0.883883 J-0.883883
G03 X71.415000 Y66.825000 Z-0.062500 I1.154849 J-0.478354
G01 X71.415000 Y66.825000 Z-0.062500
G00 Z2.500000

(End cutting path id: circle1)


(Start cutting path id: path104)
(Change tool to Default tool)

G00 Z2.500000
G00 X66.315000 Y69.365000

G01 Z-0.062500 F100.0(Penetrate)
G01 X65.715000 Y68.765000 Z-0.062500 F400.000000
G00 Z2.500000

(End cutting path id: path104)


(Start cutting path id: path105)
(Change tool to Default tool)

G00 Z2.500000
G00 X65.715000 Y68.765000

G01 Z-0.062500 F100.0(Penetrate)
G01 X65.715000 Y61.625000 Z-0.062500 F400.000000
G00 Z2.500000

(End cutting path id: path105)


(Start cutting path id: path49)
(Change tool to Default tool)

G00 Z2.500000
G00 X66.090000 Y61.175000

G01 Z-0.062500 F100.0(Penetrate)
G01 X66.176100 Y61.192100 Z-0.062500 F400.000000
G01 X66.249100 Y61.240900 Z-0.062500
G01 X66.297900 Y61.313900 Z-0.062500
G01 X66.315000 Y61.400000 Z-0.062500
G01 X66.315000 Y61.850000 Z-0.062500
G01 X66.297900 Y61.936100 Z-0.062500
G01 X66.249100 Y62.009100 Z-0.062500
G01 X66.176100 Y62.057900 Z-0.062500
G01 X66.090000 Y62.075000 Z-0.062500
G01 X65.340000 Y62.075000 Z-0.062500
G01 X65.253900 Y62.057900 Z-0.062500
G01 X65.180900 Y62.009100 Z-0.062500
G01 X65.132100 Y61.936100 Z-0.062500
G01 X65.115000 Y61.850000 Z-0.062500
G01 X65.115000 Y61.400000 Z-0.062500
G01 X65.132100 Y61.313900 Z-0.062500
G01 X65.180900 Y61.240900 Z-0.062500
G01 X65.253900 Y61.192100 Z-0.062500
G01 X65.340000 Y61.175000 Z-0.062500
G01 X66.090000 Y61.175000 Z-0.062500
G00 Z2.500000

(End cutting path id: path49)


(Start cutting path id: path50)
(Change tool to Default tool)

G00 Z2.500000
G00 X66.090000 Y57.875000

G01 Z-0.062500 F100.0(Penetrate)
G01 X66.176100 Y57.892100 Z-0.062500 F400.000000
G01 X66.249100 Y57.940900 Z-0.062500
G01 X66.297900 Y58.013900 Z-0.062500
G01 X66.315000 Y58.100000 Z-0.062500
G01 X66.315000 Y58.550000 Z-0.062500
G01 X66.297900 Y58.636100 Z-0.062500
G01 X66.249100 Y58.709100 Z-0.062500
G01 X66.176100 Y58.757900 Z-0.062500
G01 X66.090000 Y58.775000 Z-0.062500
G01 X65.340000 Y58.775000 Z-0.062500
G01 X65.253900 Y58.757900 Z-0.062500
G01 X65.180900 Y58.709100 Z-0.062500
G01 X65.132100 Y58.636100 Z-0.062500
G01 X65.115000 Y58.550000 Z-0.062500
G01 X65.115000 Y58.100000 Z-0.062500
G01 X65.132100 Y58.013900 Z-0.062500
G01 X65.180900 Y57.940900 Z-0.062500
G01 X65.253900 Y57.892100 Z-0.062500
G01 X65.340000 Y57.875000 Z-0.062500
G01 X66.090000 Y57.875000 Z-0.062500
G00 Z2.500000

(End cutting path id: path50)


(Start cutting path id: circle2)
(Change tool to Default tool)

G00 Z2.500000
G00 X65.065010 Y69.365000

G01 Z-0.062500 F100.0(Penetrate)
G03 X65.160161 Y68.886646 Z-0.062500 I1.250000 J0.000000 F400.000000
G03 X65.431127 Y68.481117 Z-0.062500 I1.154849 J0.478354
G03 X65.836656 Y68.210151 Z-0.062500 I0.883883 J0.883883
G03 X66.315010 Y68.115000 Z-0.062500 I0.478354 J1.154849
G03 X66.793364 Y68.210151 Z-0.062500 I0.000000 J1.250000
G03 X67.198893 Y68.481117 Z-0.062500 I-0.478354 J1.154849
G03 X67.469859 Y68.886646 Z-0.062500 I-0.883883 J0.883883
G03 X67.565010 Y69.365000 Z-0.062500 I-1.154849 J0.478354
G03 X67.469859 Y69.843354 Z-0.062500 I-1.250000 J0.000000
G03 X67.198893 Y70.248883 Z-0.062500 I-1.154849 J-0.478354
G03 X66.793364 Y70.519849 Z-0.062500 I-0.883883 J-0.883883
G03 X66.315010 Y70.615000 Z-0.062500 I-0.478354 J-1.154849
G03 X65.836656 Y70.519849 Z-0.062500 I-0.000000 J-1.250000
G03 X65.431127 Y70.248883 Z-0.062500 I0.478354 J-1.154849
G03 X65.160161 Y69.843354 Z-0.062500 I0.883883 J-0.883883
G03 X65.065010 Y69.365000 Z-0.062500 I1.154849 J-0.478354
G01 X65.065010 Y69.365000 Z-0.062500
G00 Z2.500000

(End cutting path id: circle2)


(Start cutting path id: path52)
(Change tool to Default tool)

G00 Z2.500000
G00 X66.090000 Y76.925000

G01 Z-0.062500 F100.0(Penetrate)
G01 X66.176100 Y76.942100 Z-0.062500 F400.000000
G01 X66.249100 Y76.990900 Z-0.062500
G01 X66.297900 Y77.063900 Z-0.062500
G01 X66.315000 Y77.150000 Z-0.062500
G01 X66.315000 Y77.600000 Z-0.062500
G01 X66.297900 Y77.686100 Z-0.062500
G01 X66.249100 Y77.759100 Z-0.062500
G01 X66.176100 Y77.807900 Z-0.062500
G01 X66.090000 Y77.825000 Z-0.062500
G01 X65.340000 Y77.825000 Z-0.062500
G01 X65.253900 Y77.807900 Z-0.062500
G01 X65.180900 Y77.759100 Z-0.062500
G01 X65.132100 Y77.686100 Z-0.062500
G01 X65.115000 Y77.600000 Z-0.062500
G01 X65.115000 Y77.150000 Z-0.062500
G01 X65.132100 Y77.063900 Z-0.062500
G01 X65.180900 Y76.990900 Z-0.062500
G01 X65.253900 Y76.942100 Z-0.062500
G01 X65.340000 Y76.925000 Z-0.062500
G01 X66.090000 Y76.925000 Z-0.062500
G00 Z2.500000

(End cutting path id: path52)


(Start cutting path id: path51)
(Change tool to Default tool)

G00 Z2.500000
G00 X66.090000 Y80.225000

G01 Z-0.062500 F100.0(Penetrate)
G01 X66.176100 Y80.242100 Z-0.062500 F400.000000
G01 X66.249100 Y80.290900 Z-0.062500
G01 X66.297900 Y80.363900 Z-0.062500
G01 X66.315000 Y80.450000 Z-0.062500
G01 X66.315000 Y80.900000 Z-0.062500
G01 X66.297900 Y80.986100 Z-0.062500
G01 X66.249100 Y81.059100 Z-0.062500
G01 X66.176100 Y81.107900 Z-0.062500
G01 X66.090000 Y81.125000 Z-0.062500
G01 X65.340000 Y81.125000 Z-0.062500
G01 X65.253900 Y81.107900 Z-0.062500
G01 X65.180900 Y81.059100 Z-0.062500
G01 X65.132100 Y80.986100 Z-0.062500
G01 X65.115000 Y80.900000 Z-0.062500
G01 X65.115000 Y80.450000 Z-0.062500
G01 X65.132100 Y80.363900 Z-0.062500
G01 X65.180900 Y80.290900 Z-0.062500
G01 X65.253900 Y80.242100 Z-0.062500
G01 X65.340000 Y80.225000 Z-0.062500
G01 X66.090000 Y80.225000 Z-0.062500
G00 Z2.500000

(End cutting path id: path51)


(Start cutting path id: path107)
(Change tool to Default tool)

G00 Z2.500000
G00 X65.715000 Y87.815000

G01 Z-0.062500 F100.0(Penetrate)
G01 X65.715000 Y80.675000 Z-0.062500 F400.000000
G00 Z2.500000

(End cutting path id: path107)


(Start cutting path id: circle7)
(Change tool to Default tool)

G00 Z2.500000
G00 X71.415000 Y85.875000

G01 Z-0.062500 F100.0(Penetrate)
G03 X71.510151 Y85.396646 Z-0.062500 I1.250000 J0.000000 F400.000000
G03 X71.781117 Y84.991117 Z-0.062500 I1.154849 J0.478354
G03 X72.186646 Y84.720151 Z-0.062500 I0.883883 J0.883883
G03 X72.665000 Y84.625000 Z-0.062500 I0.478354 J1.154849
G03 X73.143354 Y84.720151 Z-0.062500 I-0.000000 J1.250000
G03 X73.548883 Y84.991117 Z-0.062500 I-0.478354 J1.154849
G03 X73.819849 Y85.396646 Z-0.062500 I-0.883883 J0.883883
G03 X73.915000 Y85.875000 Z-0.062500 I-1.154849 J0.478354
G03 X73.819849 Y86.353354 Z-0.062500 I-1.250000 J-0.000000
G03 X73.548883 Y86.758883 Z-0.062500 I-1.154849 J-0.478354
G03 X73.143354 Y87.029849 Z-0.062500 I-0.883883 J-0.883883
G03 X72.665000 Y87.125000 Z-0.062500 I-0.478354 J-1.154849
G03 X72.186646 Y87.029849 Z-0.062500 I0.000000 J-1.250000
G03 X71.781117 Y86.758883 Z-0.062500 I0.478354 J-1.154849
G03 X71.510151 Y86.353354 Z-0.062500 I0.883883 J-0.883883
G03 X71.415000 Y85.875000 Z-0.062500 I1.154849 J-0.478354
G01 X71.415000 Y85.875000 Z-0.062500
G00 Z2.500000

(End cutting path id: circle7)


(Start cutting path id: path106)
(Change tool to Default tool)

G00 Z2.500000
G00 X66.315000 Y88.415000

G01 Z-0.062500 F100.0(Penetrate)
G01 X65.715000 Y87.815000 Z-0.062500 F400.000000
G00 Z2.500000

(End cutting path id: path106)


(Start cutting path id: circle8)
(Change tool to Default tool)

G00 Z2.500000
G00 X65.065010 Y88.415000

G01 Z-0.062500 F100.0(Penetrate)
G03 X65.160161 Y87.936646 Z-0.062500 I1.250000 J0.000000 F400.000000
G03 X65.431127 Y87.531117 Z-0.062500 I1.154849 J0.478354
G03 X65.836656 Y87.260151 Z-0.062500 I0.883883 J0.883883
G03 X66.315010 Y87.165000 Z-0.062500 I0.478354 J1.154849
G03 X66.793364 Y87.260151 Z-0.062500 I-0.000000 J1.250000
G03 X67.198893 Y87.531117 Z-0.062500 I-0.478354 J1.154849
G03 X67.469859 Y87.936646 Z-0.062500 I-0.883883 J0.883883
G03 X67.565010 Y88.415000 Z-0.062500 I-1.154849 J0.478354
G03 X67.469859 Y88.893354 Z-0.062500 I-1.250000 J-0.000000
G03 X67.198893 Y89.298883 Z-0.062500 I-1.154849 J-0.478354
G03 X66.793364 Y89.569849 Z-0.062500 I-0.883883 J-0.883883
G03 X66.315010 Y89.665000 Z-0.062500 I-0.478354 J-1.154849
G03 X65.836656 Y89.569849 Z-0.062500 I-0.000000 J-1.250000
G03 X65.431127 Y89.298883 Z-0.062500 I0.478354 J-1.154849
G03 X65.160161 Y88.893354 Z-0.062500 I0.883883 J-0.883883
G03 X65.065010 Y88.415000 Z-0.062500 I1.154849 J-0.478354
G01 X65.065010 Y88.415000 Z-0.062500
G00 Z2.500000

(End cutting path id: circle8)


(Start cutting path id: path54)
(Change tool to Default tool)

G00 Z2.500000
G00 X66.090000 Y95.975000

G01 Z-0.062500 F100.0(Penetrate)
G01 X66.176100 Y95.992100 Z-0.062500 F400.000000
G01 X66.249100 Y96.040900 Z-0.062500
G01 X66.297900 Y96.113900 Z-0.062500
G01 X66.315000 Y96.200000 Z-0.062500
G01 X66.315000 Y96.650000 Z-0.062500
G01 X66.297900 Y96.736100 Z-0.062500
G01 X66.249100 Y96.809100 Z-0.062500
G01 X66.176100 Y96.857900 Z-0.062500
G01 X66.090000 Y96.875000 Z-0.062500
G01 X65.340000 Y96.875000 Z-0.062500
G01 X65.253900 Y96.857900 Z-0.062500
G01 X65.180900 Y96.809100 Z-0.062500
G01 X65.132100 Y96.736100 Z-0.062500
G01 X65.115000 Y96.650000 Z-0.062500
G01 X65.115000 Y96.200000 Z-0.062500
G01 X65.132100 Y96.113900 Z-0.062500
G01 X65.180900 Y96.040900 Z-0.062500
G01 X65.253900 Y95.992100 Z-0.062500
G01 X65.340000 Y95.975000 Z-0.062500
G01 X66.090000 Y95.975000 Z-0.062500
G00 Z2.500000

(End cutting path id: path54)


(Start cutting path id: path63)
(Change tool to Default tool)

G00 Z2.500000
G00 X65.715000 Y96.425000

G01 Z-0.062500 F100.0(Penetrate)
G01 X55.215000 Y106.925000 Z-0.062500 F400.000000
G00 Z2.500000

(End cutting path id: path63)


(Start cutting path id: path60)
(Change tool to Default tool)

G00 Z2.500000
G00 X55.215000 Y106.925000

G01 Z-0.062500 F100.0(Penetrate)
G01 X55.215000 Y128.475000 Z-0.062500 F400.000000
G00 Z2.500000

(End cutting path id: path60)


(Start cutting path id: path58)
(Change tool to Default tool)

G00 Z2.500000
G00 X55.215000 Y128.475000

G01 Z-0.062500 F100.0(Penetrate)
G01 X71.666000 Y144.926000 Z-0.062500 F400.000000
G00 Z2.500000

(End cutting path id: path58)


(Start cutting path id: path59)
(Change tool to Default tool)

G00 Z2.500000
G00 X71.666000 Y144.926000

G01 Z-0.062500 F100.0(Penetrate)
G01 X80.266100 Y144.926000 Z-0.062500 F400.000000
G00 Z2.500000

(End cutting path id: path59)


(Start cutting path id: path70)
(Change tool to Default tool)

G00 Z2.500000
G00 X86.843900 Y144.926000

G01 Z-0.062500 F100.0(Penetrate)
G01 X86.095000 Y144.177100 Z-0.062500 F400.000000
G00 Z2.500000

(End cutting path id: path70)


(Start cutting path id: circle30)
(Change tool to Default tool)

G00 Z2.500000
G00 X90.325010 Y142.975000

G01 Z-0.062500 F100.0(Penetrate)
G03 X90.573969 Y142.373959 Z-0.062500 I0.850000 J0.000000 F400.000000
G03 X91.175010 Y142.125000 Z-0.062500 I0.601041 J0.601041
G03 X91.776051 Y142.373959 Z-0.062500 I-0.000000 J0.850000
G03 X92.025010 Y142.975000 Z-0.062500 I-0.601041 J0.601041
G03 X91.776051 Y143.576041 Z-0.062500 I-0.850000 J-0.000000
G03 X91.175010 Y143.825000 Z-0.062500 I-0.601041 J-0.601041
G03 X90.573969 Y143.576041 Z-0.062500 I0.000000 J-0.850000
G03 X90.325010 Y142.975000 Z-0.062500 I0.601041 J-0.601041
G01 X90.325010 Y142.975000 Z-0.062500
G00 Z2.500000

(End cutting path id: circle30)


(Start cutting path id: path94)
(Change tool to Default tool)

G00 Z2.500000
G00 X91.175000 Y142.975000

G01 Z-0.062500 F100.0(Penetrate)
G01 X91.175000 Y124.515000 Z-0.062500 F400.000000
G00 Z2.500000

(End cutting path id: path94)


(Start cutting path id: path95)
(Change tool to Default tool)

G00 Z2.500000
G00 X91.175000 Y124.515000

G01 Z-0.062500 F100.0(Penetrate)
G01 X91.715000 Y123.975000 Z-0.062500 F400.000000
G00 Z2.500000

(End cutting path id: path95)


(Start cutting path id: path133)
(Change tool to Default tool)

G00 Z2.500000
G00 X91.715000 Y123.975000

G01 Z-0.062500 F100.0(Penetrate)
G01 X93.482800 Y123.975000 Z-0.062500 F400.000000
G00 Z2.500000

(End cutting path id: path133)


(Start cutting path id: path130)
(Change tool to Default tool)

G00 Z2.500000
G00 X93.482800 Y123.975000

G01 Z-0.062500 F100.0(Penetrate)
G01 X100.381800 Y117.076000 Z-0.062500 F400.000000
G00 Z2.500000

(End cutting path id: path130)


(Start cutting path id: path129)
(Change tool to Default tool)

G00 Z2.500000
G00 X100.381800 Y117.076000

G01 Z-0.062500 F100.0(Penetrate)
G01 X104.695500 Y117.076000 Z-0.062500 F400.000000
G00 Z2.500000

(End cutting path id: path129)


(Start cutting path id: path128)
(Change tool to Default tool)

G00 Z2.500000
G00 X104.695500 Y117.076000

G01 Z-0.062500 F100.0(Penetrate)
G01 X105.516000 Y116.255500 Z-0.062500 F400.000000
G00 Z2.500000

(End cutting path id: path128)


(Start cutting path id: path132)
(Change tool to Default tool)

G00 Z2.500000
G00 X105.516000 Y116.255500

G01 Z-0.062500 F100.0(Penetrate)
G01 X105.516000 Y114.694500 Z-0.062500 F400.000000
G00 Z2.500000

(End cutting path id: path132)


(Start cutting path id: path131)
(Change tool to Default tool)

G00 Z2.500000
G00 X105.516000 Y114.694500

G01 Z-0.062500 F100.0(Penetrate)
G01 X95.746500 Y104.925000 Z-0.062500 F400.000000
G00 Z2.500000

(End cutting path id: path131)


(Start cutting path id: path127)
(Change tool to Default tool)

G00 Z2.500000
G00 X95.746500 Y104.925000

G01 Z-0.062500 F100.0(Penetrate)
G01 X91.715000 Y104.925000 Z-0.062500 F400.000000
G00 Z2.500000

(End cutting path id: path127)


(Start cutting path id: path141)
(Change tool to Default tool)

G00 Z2.500000
G00 X91.715000 Y104.925000

G01 Z-0.062500 F100.0(Penetrate)
G01 X91.359000 Y104.569000 Z-0.062500 F400.000000
G00 Z2.500000

(End cutting path id: path141)


(Start cutting path id: path140)
(Change tool to Default tool)

G00 Z2.500000
G00 X91.359000 Y104.569000

G01 Z-0.062500 F100.0(Penetrate)
G01 X91.359000 Y99.331000 Z-0.062500 F400.000000
G00 Z2.500000

(End cutting path id: path140)


(Start cutting path id: path139)
(Change tool to Default tool)

G00 Z2.500000
G00 X91.359000 Y99.331000

G01 Z-0.062500 F100.0(Penetrate)
G01 X92.664000 Y98.026000 Z-0.062500 F400.000000
G00 Z2.500000

(End cutting path id: path139)


(Start cutting path id: path138)
(Change tool to Default tool)

G00 Z2.500000
G00 X92.664000 Y98.026000

G01 Z-0.062500 F100.0(Penetrate)
G01 X104.695500 Y98.026000 Z-0.062500 F400.000000
G00 Z2.500000

(End cutting path id: path138)


(Start cutting path id: path137)
(Change tool to Default tool)

G00 Z2.500000
G00 X104.695500 Y98.026000

G01 Z-0.062500 F100.0(Penetrate)
G01 X105.516000 Y97.205500 Z-0.062500 F400.000000
G00 Z2.500000

(End cutting path id: path137)


(Start cutting path id: path136)
(Change tool to Default tool)

G00 Z2.500000
G00 X105.516000 Y97.205500

G01 Z-0.062500 F100.0(Penetrate)
G01 X105.516000 Y95.644500 Z-0.062500 F400.000000
G00 Z2.500000

(End cutting path id: path136)


(Start cutting path id: path134)
(Change tool to Default tool)

G00 Z2.500000
G00 X105.516000 Y95.644500

G01 Z-0.062500 F100.0(Penetrate)
G01 X95.746500 Y85.875000 Z-0.062500 F400.000000
G00 Z2.500000

(End cutting path id: path134)


(Start cutting path id: path135)
(Change tool to Default tool)

G00 Z2.500000
G00 X95.746500 Y85.875000

G01 Z-0.062500 F100.0(Penetrate)
G01 X91.715000 Y85.875000 Z-0.062500 F400.000000
G00 Z2.500000

(End cutting path id: path135)


(Start cutting path id: path143)
(Change tool to Default tool)

G00 Z2.500000
G00 X91.715000 Y85.875000

G01 Z-0.062500 F100.0(Penetrate)
G01 X92.744500 Y85.875000 Z-0.062500 F400.000000
G00 Z2.500000

(End cutting path id: path143)


(Start cutting path id: path145)
(Change tool to Default tool)

G00 Z2.500000
G00 X92.744500 Y85.875000

G01 Z-0.062500 F100.0(Penetrate)
G01 X99.643500 Y78.976000 Z-0.062500 F400.000000
G00 Z2.500000

(End cutting path id: path145)


(Start cutting path id: path148)
(Change tool to Default tool)

G00 Z2.500000
G00 X99.643500 Y78.976000

G01 Z-0.062500 F100.0(Penetrate)
G01 X104.695500 Y78.976000 Z-0.062500 F400.000000
G00 Z2.500000

(End cutting path id: path148)


(Start cutting path id: path147)
(Change tool to Default tool)

G00 Z2.500000
G00 X104.695500 Y78.976000

G01 Z-0.062500 F100.0(Penetrate)
G01 X105.516000 Y78.155500 Z-0.062500 F400.000000
G00 Z2.500000

(End cutting path id: path147)


(Start cutting path id: path146)
(Change tool to Default tool)

G00 Z2.500000
G00 X105.516000 Y78.155500

G01 Z-0.062500 F100.0(Penetrate)
G01 X105.516000 Y76.594500 Z-0.062500 F400.000000
G00 Z2.500000

(End cutting path id: path146)


(Start cutting path id: path144)
(Change tool to Default tool)

G00 Z2.500000
G00 X105.516000 Y76.594500

G01 Z-0.062500 F100.0(Penetrate)
G01 X95.746500 Y66.825000 Z-0.062500 F400.000000
G00 Z2.500000

(End cutting path id: path144)


(Start cutting path id: path142)
(Change tool to Default tool)

G00 Z2.500000
G00 X95.746500 Y66.825000

G01 Z-0.062500 F100.0(Penetrate)
G01 X91.715000 Y66.825000 Z-0.062500 F400.000000
G00 Z2.500000

(End cutting path id: path142)


(Start cutting path id: circle4)
(Change tool to Default tool)

G00 Z2.500000
G00 X90.465000 Y66.825000

G01 Z-0.062500 F100.0(Penetrate)
G03 X90.560151 Y66.346646 Z-0.062500 I1.250000 J0.000000 F400.000000
G03 X90.831117 Y65.941117 Z-0.062500 I1.154849 J0.478354
G03 X91.236646 Y65.670151 Z-0.062500 I0.883883 J0.883883
G03 X91.715000 Y65.575000 Z-0.062500 I0.478354 J1.154849
G03 X92.193354 Y65.670151 Z-0.062500 I0.000000 J1.250000
G03 X92.598883 Y65.941117 Z-0.062500 I-0.478354 J1.154849
G03 X92.869849 Y66.346646 Z-0.062500 I-0.883883 J0.883883
G03 X92.965000 Y66.825000 Z-0.062500 I-1.154849 J0.478354
G03 X92.869849 Y67.303354 Z-0.062500 I-1.250000 J0.000000
G03 X92.598883 Y67.708883 Z-0.062500 I-1.154849 J-0.478354
G03 X92.193354 Y67.979849 Z-0.062500 I-0.883883 J-0.883883
G03 X91.715000 Y68.075000 Z-0.062500 I-0.478354 J-1.154849
G03 X91.236646 Y67.979849 Z-0.062500 I-0.000000 J-1.250000
G03 X90.831117 Y67.708883 Z-0.062500 I0.478354 J-1.154849
G03 X90.560151 Y67.303354 Z-0.062500 I0.883883 J-0.883883
G03 X90.465000 Y66.825000 Z-0.062500 I1.154849 J-0.478354
G01 X90.465000 Y66.825000 Z-0.062500
G00 Z2.500000

(End cutting path id: circle4)


(Start cutting path id: path102)
(Change tool to Default tool)

G00 Z2.500000
G00 X85.365000 Y69.365000

G01 Z-0.062500 F100.0(Penetrate)
G01 X84.765000 Y68.765000 Z-0.062500 F400.000000
G00 Z2.500000

(End cutting path id: path102)


(Start cutting path id: path103)
(Change tool to Default tool)

G00 Z2.500000
G00 X84.765000 Y68.765000

G01 Z-0.062500 F100.0(Penetrate)
G01 X84.765000 Y61.625000 Z-0.062500 F400.000000
G00 Z2.500000

(End cutting path id: path103)


(Start cutting path id: path41)
(Change tool to Default tool)

G00 Z2.500000
G00 X85.140000 Y61.175000

G01 Z-0.062500 F100.0(Penetrate)
G01 X85.226100 Y61.192100 Z-0.062500 F400.000000
G01 X85.299100 Y61.240900 Z-0.062500
G01 X85.347900 Y61.313900 Z-0.062500
G01 X85.365000 Y61.400000 Z-0.062500
G01 X85.365000 Y61.850000 Z-0.062500
G01 X85.347900 Y61.936100 Z-0.062500
G01 X85.299100 Y62.009100 Z-0.062500
G01 X85.226100 Y62.057900 Z-0.062500
G01 X85.140000 Y62.075000 Z-0.062500
G01 X84.390000 Y62.075000 Z-0.062500
G01 X84.303900 Y62.057900 Z-0.062500
G01 X84.230900 Y62.009100 Z-0.062500
G01 X84.182100 Y61.936100 Z-0.062500
G01 X84.165000 Y61.850000 Z-0.062500
G01 X84.165000 Y61.400000 Z-0.062500
G01 X84.182100 Y61.313900 Z-0.062500
G01 X84.230900 Y61.240900 Z-0.062500
G01 X84.303900 Y61.192100 Z-0.062500
G01 X84.390000 Y61.175000 Z-0.062500
G01 X85.140000 Y61.175000 Z-0.062500
G00 Z2.500000

(End cutting path id: path41)


(Start cutting path id: path42)
(Change tool to Default tool)

G00 Z2.500000
G00 X85.140000 Y57.875000

G01 Z-0.062500 F100.0(Penetrate)
G01 X85.226100 Y57.892100 Z-0.062500 F400.000000
G01 X85.299100 Y57.940900 Z-0.062500
G01 X85.347900 Y58.013900 Z-0.062500
G01 X85.365000 Y58.100000 Z-0.062500
G01 X85.365000 Y58.550000 Z-0.062500
G01 X85.347900 Y58.636100 Z-0.062500
G01 X85.299100 Y58.709100 Z-0.062500
G01 X85.226100 Y58.757900 Z-0.062500
G01 X85.140000 Y58.775000 Z-0.062500
G01 X84.390000 Y58.775000 Z-0.062500
G01 X84.303900 Y58.757900 Z-0.062500
G01 X84.230900 Y58.709100 Z-0.062500
G01 X84.182100 Y58.636100 Z-0.062500
G01 X84.165000 Y58.550000 Z-0.062500
G01 X84.165000 Y58.100000 Z-0.062500
G01 X84.182100 Y58.013900 Z-0.062500
G01 X84.230900 Y57.940900 Z-0.062500
G01 X84.303900 Y57.892100 Z-0.062500
G01 X84.390000 Y57.875000 Z-0.062500
G01 X85.140000 Y57.875000 Z-0.062500
G00 Z2.500000

(End cutting path id: path42)


(Start cutting path id: circle3)
(Change tool to Default tool)

G00 Z2.500000
G00 X84.114990 Y69.365000

G01 Z-0.062500 F100.0(Penetrate)
G03 X84.210141 Y68.886646 Z-0.062500 I1.250000 J0.000000 F400.000000
G03 X84.481107 Y68.481117 Z-0.062500 I1.154849 J0.478354
G03 X84.886636 Y68.210151 Z-0.062500 I0.883883 J0.883883
G03 X85.364990 Y68.115000 Z-0.062500 I0.478354 J1.154849
G03 X85.843344 Y68.210151 Z-0.062500 I-0.000000 J1.250000
G03 X86.248873 Y68.481117 Z-0.062500 I-0.478354 J1.154849
G03 X86.519839 Y68.886646 Z-0.062500 I-0.883883 J0.883883
G03 X86.614990 Y69.365000 Z-0.062500 I-1.154849 J0.478354
G03 X86.519839 Y69.843354 Z-0.062500 I-1.250000 J0.000000
G03 X86.248873 Y70.248883 Z-0.062500 I-1.154849 J-0.478354
G03 X85.843344 Y70.519849 Z-0.062500 I-0.883883 J-0.883883
G03 X85.364990 Y70.615000 Z-0.062500 I-0.478354 J-1.154849
G03 X84.886636 Y70.519849 Z-0.062500 I-0.000000 J-1.250000
G03 X84.481107 Y70.248883 Z-0.062500 I0.478354 J-1.154849
G03 X84.210141 Y69.843354 Z-0.062500 I0.883883 J-0.883883
G03 X84.114990 Y69.365000 Z-0.062500 I1.154849 J-0.478354
G01 X84.114990 Y69.365000 Z-0.062500
G00 Z2.500000

(End cutting path id: circle3)


(Start cutting path id: path48)
(Change tool to Default tool)

G00 Z2.500000
G00 X85.140000 Y76.925000

G01 Z-0.062500 F100.0(Penetrate)
G01 X85.226100 Y76.942100 Z-0.062500 F400.000000
G01 X85.299100 Y76.990900 Z-0.062500
G01 X85.347900 Y77.063900 Z-0.062500
G01 X85.365000 Y77.150000 Z-0.062500
G01 X85.365000 Y77.600000 Z-0.062500
G01 X85.347900 Y77.686100 Z-0.062500
G01 X85.299100 Y77.759100 Z-0.062500
G01 X85.226100 Y77.807900 Z-0.062500
G01 X85.140000 Y77.825000 Z-0.062500
G01 X84.390000 Y77.825000 Z-0.062500
G01 X84.303900 Y77.807900 Z-0.062500
G01 X84.230900 Y77.759100 Z-0.062500
G01 X84.182100 Y77.686100 Z-0.062500
G01 X84.165000 Y77.600000 Z-0.062500
G01 X84.165000 Y77.150000 Z-0.062500
G01 X84.182100 Y77.063900 Z-0.062500
G01 X84.230900 Y76.990900 Z-0.062500
G01 X84.303900 Y76.942100 Z-0.062500
G01 X84.390000 Y76.925000 Z-0.062500
G01 X85.140000 Y76.925000 Z-0.062500
G00 Z2.500000

(End cutting path id: path48)


(Start cutting path id: path47)
(Change tool to Default tool)

G00 Z2.500000
G00 X85.140000 Y80.225000

G01 Z-0.062500 F100.0(Penetrate)
G01 X85.226100 Y80.242100 Z-0.062500 F400.000000
G01 X85.299100 Y80.290900 Z-0.062500
G01 X85.347900 Y80.363900 Z-0.062500
G01 X85.365000 Y80.450000 Z-0.062500
G01 X85.365000 Y80.900000 Z-0.062500
G01 X85.347900 Y80.986100 Z-0.062500
G01 X85.299100 Y81.059100 Z-0.062500
G01 X85.226100 Y81.107900 Z-0.062500
G01 X85.140000 Y81.125000 Z-0.062500
G01 X84.390000 Y81.125000 Z-0.062500
G01 X84.303900 Y81.107900 Z-0.062500
G01 X84.230900 Y81.059100 Z-0.062500
G01 X84.182100 Y80.986100 Z-0.062500
G01 X84.165000 Y80.900000 Z-0.062500
G01 X84.165000 Y80.450000 Z-0.062500
G01 X84.182100 Y80.363900 Z-0.062500
G01 X84.230900 Y80.290900 Z-0.062500
G01 X84.303900 Y80.242100 Z-0.062500
G01 X84.390000 Y80.225000 Z-0.062500
G01 X85.140000 Y80.225000 Z-0.062500
G00 Z2.500000

(End cutting path id: path47)


(Start cutting path id: path109)
(Change tool to Default tool)

G00 Z2.500000
G00 X84.765000 Y87.815000

G01 Z-0.062500 F100.0(Penetrate)
G01 X84.765000 Y80.675000 Z-0.062500 F400.000000
G00 Z2.500000

(End cutting path id: path109)


(Start cutting path id: circle9)
(Change tool to Default tool)

G00 Z2.500000
G00 X90.465000 Y85.875000

G01 Z-0.062500 F100.0(Penetrate)
G03 X90.560151 Y85.396646 Z-0.062500 I1.250000 J0.000000 F400.000000
G03 X90.831117 Y84.991117 Z-0.062500 I1.154849 J0.478354
G03 X91.236646 Y84.720151 Z-0.062500 I0.883883 J0.883883
G03 X91.715000 Y84.625000 Z-0.062500 I0.478354 J1.154849
G03 X92.193354 Y84.720151 Z-0.062500 I-0.000000 J1.250000
G03 X92.598883 Y84.991117 Z-0.062500 I-0.478354 J1.154849
G03 X92.869849 Y85.396646 Z-0.062500 I-0.883883 J0.883883
G03 X92.965000 Y85.875000 Z-0.062500 I-1.154849 J0.478354
G03 X92.869849 Y86.353354 Z-0.062500 I-1.250000 J0.000000
G03 X92.598883 Y86.758883 Z-0.062500 I-1.154849 J-0.478354
G03 X92.193354 Y87.029849 Z-0.062500 I-0.883883 J-0.883883
G03 X91.715000 Y87.125000 Z-0.062500 I-0.478354 J-1.154849
G03 X91.236646 Y87.029849 Z-0.062500 I-0.000000 J-1.250000
G03 X90.831117 Y86.758883 Z-0.062500 I0.478354 J-1.154849
G03 X90.560151 Y86.353354 Z-0.062500 I0.883883 J-0.883883
G03 X90.465000 Y85.875000 Z-0.062500 I1.154849 J-0.478354
G01 X90.465000 Y85.875000 Z-0.062500
G00 Z2.500000

(End cutting path id: circle9)


(Start cutting path id: path108)
(Change tool to Default tool)

G00 Z2.500000
G00 X85.365000 Y88.415000

G01 Z-0.062500 F100.0(Penetrate)
G01 X84.765000 Y87.815000 Z-0.062500 F400.000000
G00 Z2.500000

(End cutting path id: path108)


(Start cutting path id: circle10)
(Change tool to Default tool)

G00 Z2.500000
G00 X84.114990 Y88.415000

G01 Z-0.062500 F100.0(Penetrate)
G03 X84.210141 Y87.936646 Z-0.062500 I1.250000 J0.000000 F400.000000
G03 X84.481107 Y87.531117 Z-0.062500 I1.154849 J0.478354
G03 X84.886636 Y87.260151 Z-0.062500 I0.883883 J0.883883
G03 X85.364990 Y87.165000 Z-0.062500 I0.478354 J1.154849
G03 X85.843344 Y87.260151 Z-0.062500 I-0.000000 J1.250000
G03 X86.248873 Y87.531117 Z-0.062500 I-0.478354 J1.154849
G03 X86.519839 Y87.936646 Z-0.062500 I-0.883883 J0.883883
G03 X86.614990 Y88.415000 Z-0.062500 I-1.154849 J0.478354
G03 X86.519839 Y88.893354 Z-0.062500 I-1.250000 J0.000000
G03 X86.248873 Y89.298883 Z-0.062500 I-1.154849 J-0.478354
G03 X85.843344 Y89.569849 Z-0.062500 I-0.883883 J-0.883883
G03 X85.364990 Y89.665000 Z-0.062500 I-0.478354 J-1.154849
G03 X84.886636 Y89.569849 Z-0.062500 I-0.000000 J-1.250000
G03 X84.481107 Y89.298883 Z-0.062500 I0.478354 J-1.154849
G03 X84.210141 Y88.893354 Z-0.062500 I0.883883 J-0.883883
G03 X84.114990 Y88.415000 Z-0.062500 I1.154849 J-0.478354
G01 X84.114990 Y88.415000 Z-0.062500
G00 Z2.500000

(End cutting path id: circle10)


(Start cutting path id: path44)
(Change tool to Default tool)

G00 Z2.500000
G00 X85.140000 Y95.975000

G01 Z-0.062500 F100.0(Penetrate)
G01 X85.226100 Y95.992100 Z-0.062500 F400.000000
G01 X85.299100 Y96.040900 Z-0.062500
G01 X85.347900 Y96.113900 Z-0.062500
G01 X85.365000 Y96.200000 Z-0.062500
G01 X85.365000 Y96.650000 Z-0.062500
G01 X85.347900 Y96.736100 Z-0.062500
G01 X85.299100 Y96.809100 Z-0.062500
G01 X85.226100 Y96.857900 Z-0.062500
G01 X85.140000 Y96.875000 Z-0.062500
G01 X84.390000 Y96.875000 Z-0.062500
G01 X84.303900 Y96.857900 Z-0.062500
G01 X84.230900 Y96.809100 Z-0.062500
G01 X84.182100 Y96.736100 Z-0.062500
G01 X84.165000 Y96.650000 Z-0.062500
G01 X84.165000 Y96.200000 Z-0.062500
G01 X84.182100 Y96.113900 Z-0.062500
G01 X84.230900 Y96.040900 Z-0.062500
G01 X84.303900 Y95.992100 Z-0.062500
G01 X84.390000 Y95.975000 Z-0.062500
G01 X85.140000 Y95.975000 Z-0.062500
G00 Z2.500000

(End cutting path id: path44)


(Start cutting path id: path43)
(Change tool to Default tool)

G00 Z2.500000
G00 X85.140000 Y99.275000

G01 Z-0.062500 F100.0(Penetrate)
G01 X85.226100 Y99.292100 Z-0.062500 F400.000000
G01 X85.299100 Y99.340900 Z-0.062500
G01 X85.347900 Y99.413900 Z-0.062500
G01 X85.365000 Y99.500000 Z-0.062500
G01 X85.365000 Y99.950000 Z-0.062500
G01 X85.347900 Y100.036100 Z-0.062500
G01 X85.299100 Y100.109100 Z-0.062500
G01 X85.226100 Y100.157900 Z-0.062500
G01 X85.140000 Y100.175000 Z-0.062500
G01 X84.390000 Y100.175000 Z-0.062500
G01 X84.303900 Y100.157900 Z-0.062500
G01 X84.230900 Y100.109100 Z-0.062500
G01 X84.182100 Y100.036100 Z-0.062500
G01 X84.165000 Y99.950000 Z-0.062500
G01 X84.165000 Y99.500000 Z-0.062500
G01 X84.182100 Y99.413900 Z-0.062500
G01 X84.230900 Y99.340900 Z-0.062500
G01 X84.303900 Y99.292100 Z-0.062500
G01 X84.390000 Y99.275000 Z-0.062500
G01 X85.140000 Y99.275000 Z-0.062500
G00 Z2.500000

(End cutting path id: path43)


(Start cutting path id: path115)
(Change tool to Default tool)

G00 Z2.500000
G00 X84.765000 Y106.865000

G01 Z-0.062500 F100.0(Penetrate)
G01 X84.765000 Y99.725000 Z-0.062500 F400.000000
G00 Z2.500000

(End cutting path id: path115)


(Start cutting path id: circle15)
(Change tool to Default tool)

G00 Z2.500000
G00 X90.465000 Y104.924997

G01 Z-0.062500 F100.0(Penetrate)
G03 X90.560151 Y104.446643 Z-0.062500 I1.250000 J0.000000 F400.000000
G03 X90.831117 Y104.041114 Z-0.062500 I1.154849 J0.478354
G03 X91.236646 Y103.770148 Z-0.062500 I0.883883 J0.883883
G03 X91.715000 Y103.674997 Z-0.062500 I0.478354 J1.154849
G03 X92.193354 Y103.770148 Z-0.062500 I-0.000000 J1.250000
G03 X92.598883 Y104.041114 Z-0.062500 I-0.478354 J1.154849
G03 X92.869849 Y104.446643 Z-0.062500 I-0.883883 J0.883883
G03 X92.965000 Y104.924997 Z-0.062500 I-1.154849 J0.478354
G03 X92.869849 Y105.403351 Z-0.062500 I-1.250000 J0.000000
G03 X92.598883 Y105.808880 Z-0.062500 I-1.154849 J-0.478354
G03 X92.193354 Y106.079846 Z-0.062500 I-0.883883 J-0.883883
G03 X91.715000 Y106.174997 Z-0.062500 I-0.478354 J-1.154849
G03 X91.236646 Y106.079846 Z-0.062500 I-0.000000 J-1.250000
G03 X90.831117 Y105.808880 Z-0.062500 I0.478354 J-1.154849
G03 X90.560151 Y105.403351 Z-0.062500 I0.883883 J-0.883883
G03 X90.465000 Y104.924997 Z-0.062500 I1.154849 J-0.478354
G01 X90.465000 Y104.924997 Z-0.062500
G00 Z2.500000

(End cutting path id: circle15)


(Start cutting path id: path114)
(Change tool to Default tool)

G00 Z2.500000
G00 X85.365000 Y107.465000

G01 Z-0.062500 F100.0(Penetrate)
G01 X84.765000 Y106.865000 Z-0.062500 F400.000000
G00 Z2.500000

(End cutting path id: path114)


(Start cutting path id: circle16)
(Change tool to Default tool)

G00 Z2.500000
G00 X84.114990 Y107.464998

G01 Z-0.062500 F100.0(Penetrate)
G03 X84.210141 Y106.986644 Z-0.062500 I1.250000 J0.000000 F400.000000
G03 X84.481107 Y106.581115 Z-0.062500 I1.154849 J0.478354
G03 X84.886636 Y106.310149 Z-0.062500 I0.883883 J0.883883
G03 X85.364990 Y106.214998 Z-0.062500 I0.478354 J1.154849
G03 X85.843344 Y106.310149 Z-0.062500 I-0.000000 J1.250000
G03 X86.248873 Y106.581115 Z-0.062500 I-0.478354 J1.154849
G03 X86.519839 Y106.986644 Z-0.062500 I-0.883883 J0.883883
G03 X86.614990 Y107.464998 Z-0.062500 I-1.154849 J0.478354
G03 X86.519839 Y107.943352 Z-0.062500 I-1.250000 J0.000000
G03 X86.248873 Y108.348881 Z-0.062500 I-1.154849 J-0.478354
G03 X85.843344 Y108.619847 Z-0.062500 I-0.883883 J-0.883883
G03 X85.364990 Y108.714998 Z-0.062500 I-0.478354 J-1.154849
G03 X84.886636 Y108.619847 Z-0.062500 I0.000000 J-1.250000
G03 X84.481107 Y108.348881 Z-0.062500 I0.478354 J-1.154849
G03 X84.210141 Y107.943352 Z-0.062500 I0.883883 J-0.883883
G03 X84.114990 Y107.464998 Z-0.062500 I1.154849 J-0.478354
G01 X84.114990 Y107.464998 Z-0.062500
G00 Z2.500000

(End cutting path id: circle16)


(Start cutting path id: path46)
(Change tool to Default tool)

G00 Z2.500000
G00 X85.140000 Y115.025000

G01 Z-0.062500 F100.0(Penetrate)
G01 X85.226100 Y115.042100 Z-0.062500 F400.000000
G01 X85.299100 Y115.090900 Z-0.062500
G01 X85.347900 Y115.163900 Z-0.062500
G01 X85.365000 Y115.250000 Z-0.062500
G01 X85.365000 Y115.700000 Z-0.062500
G01 X85.347900 Y115.786100 Z-0.062500
G01 X85.299100 Y115.859100 Z-0.062500
G01 X85.226100 Y115.907900 Z-0.062500
G01 X85.140000 Y115.925000 Z-0.062500
G01 X84.390000 Y115.925000 Z-0.062500
G01 X84.303900 Y115.907900 Z-0.062500
G01 X84.230900 Y115.859100 Z-0.062500
G01 X84.182100 Y115.786100 Z-0.062500
G01 X84.165000 Y115.700000 Z-0.062500
G01 X84.165000 Y115.250000 Z-0.062500
G01 X84.182100 Y115.163900 Z-0.062500
G01 X84.230900 Y115.090900 Z-0.062500
G01 X84.303900 Y115.042100 Z-0.062500
G01 X84.390000 Y115.025000 Z-0.062500
G01 X85.140000 Y115.025000 Z-0.062500
G00 Z2.500000

(End cutting path id: path46)


(Start cutting path id: path45)
(Change tool to Default tool)

G00 Z2.500000
G00 X85.140000 Y118.325000

G01 Z-0.062500 F100.0(Penetrate)
G01 X85.226100 Y118.342100 Z-0.062500 F400.000000
G01 X85.299100 Y118.390900 Z-0.062500
G01 X85.347900 Y118.463900 Z-0.062500
G01 X85.365000 Y118.550000 Z-0.062500
G01 X85.365000 Y119.000000 Z-0.062500
G01 X85.347900 Y119.086100 Z-0.062500
G01 X85.299100 Y119.159100 Z-0.062500
G01 X85.226100 Y119.207900 Z-0.062500
G01 X85.140000 Y119.225000 Z-0.062500
G01 X84.390000 Y119.225000 Z-0.062500
G01 X84.303900 Y119.207900 Z-0.062500
G01 X84.230900 Y119.159100 Z-0.062500
G01 X84.182100 Y119.086100 Z-0.062500
G01 X84.165000 Y119.000000 Z-0.062500
G01 X84.165000 Y118.550000 Z-0.062500
G01 X84.182100 Y118.463900 Z-0.062500
G01 X84.230900 Y118.390900 Z-0.062500
G01 X84.303900 Y118.342100 Z-0.062500
G01 X84.390000 Y118.325000 Z-0.062500
G01 X85.140000 Y118.325000 Z-0.062500
G00 Z2.500000

(End cutting path id: path45)


(Start cutting path id: path122)
(Change tool to Default tool)

G00 Z2.500000
G00 X84.765000 Y125.915000

G01 Z-0.062500 F100.0(Penetrate)
G01 X84.765000 Y118.775000 Z-0.062500 F400.000000
G00 Z2.500000

(End cutting path id: path122)


(Start cutting path id: circle21)
(Change tool to Default tool)

G00 Z2.500000
G00 X90.465000 Y123.975000

G01 Z-0.062500 F100.0(Penetrate)
G03 X90.560151 Y123.496646 Z-0.062500 I1.250000 J0.000000 F400.000000
G03 X90.831117 Y123.091117 Z-0.062500 I1.154849 J0.478354
G03 X91.236646 Y122.820151 Z-0.062500 I0.883883 J0.883883
G03 X91.715000 Y122.725000 Z-0.062500 I0.478354 J1.154849
G03 X92.193354 Y122.820151 Z-0.062500 I-0.000000 J1.250000
G03 X92.598883 Y123.091117 Z-0.062500 I-0.478354 J1.154849
G03 X92.869849 Y123.496646 Z-0.062500 I-0.883883 J0.883883
G03 X92.965000 Y123.975000 Z-0.062500 I-1.154849 J0.478354
G03 X92.869849 Y124.453354 Z-0.062500 I-1.250000 J0.000000
G03 X92.598883 Y124.858883 Z-0.062500 I-1.154849 J-0.478354
G03 X92.193354 Y125.129849 Z-0.062500 I-0.883883 J-0.883883
G03 X91.715000 Y125.225000 Z-0.062500 I-0.478354 J-1.154849
G03 X91.236646 Y125.129849 Z-0.062500 I-0.000000 J-1.250000
G03 X90.831117 Y124.858883 Z-0.062500 I0.478354 J-1.154849
G03 X90.560151 Y124.453354 Z-0.062500 I0.883883 J-0.883883
G03 X90.465000 Y123.975000 Z-0.062500 I1.154849 J-0.478354
G01 X90.465000 Y123.975000 Z-0.062500
G00 Z2.500000

(End cutting path id: circle21)


(Start cutting path id: path121)
(Change tool to Default tool)

G00 Z2.500000
G00 X85.365000 Y126.515000

G01 Z-0.062500 F100.0(Penetrate)
G01 X84.765000 Y125.915000 Z-0.062500 F400.000000
G00 Z2.500000

(End cutting path id: path121)


(Start cutting path id: circle22)
(Change tool to Default tool)

G00 Z2.500000
G00 X84.114990 Y126.515001

G01 Z-0.062500 F100.0(Penetrate)
G03 X84.210141 Y126.036647 Z-0.062500 I1.250000 J0.000000 F400.000000
G03 X84.481107 Y125.631118 Z-0.062500 I1.154849 J0.478354
G03 X84.886636 Y125.360152 Z-0.062500 I0.883883 J0.883883
G03 X85.364990 Y125.265001 Z-0.062500 I0.478354 J1.154849
G03 X85.843344 Y125.360152 Z-0.062500 I-0.000000 J1.250000
G03 X86.248873 Y125.631118 Z-0.062500 I-0.478354 J1.154849
G03 X86.519839 Y126.036647 Z-0.062500 I-0.883883 J0.883883
G03 X86.614990 Y126.515001 Z-0.062500 I-1.154849 J0.478354
G03 X86.519839 Y126.993355 Z-0.062500 I-1.250000 J0.000000
G03 X86.248873 Y127.398884 Z-0.062500 I-1.154849 J-0.478354
G03 X85.843344 Y127.669850 Z-0.062500 I-0.883883 J-0.883883
G03 X85.364990 Y127.765001 Z-0.062500 I-0.478354 J-1.154849
G03 X84.886636 Y127.669850 Z-0.062500 I0.000000 J-1.250000
G03 X84.481107 Y127.398884 Z-0.062500 I0.478354 J-1.154849
G03 X84.210141 Y126.993355 Z-0.062500 I0.883883 J-0.883883
G03 X84.114990 Y126.515001 Z-0.062500 I1.154849 J-0.478354
G01 X84.114990 Y126.515001 Z-0.062500
G00 Z2.500000

(End cutting path id: circle22)


(Start cutting path id: circle19)
(Change tool to Default tool)

G00 Z2.500000
G00 X71.415000 Y123.975000

G01 Z-0.062500 F100.0(Penetrate)
G03 X71.510151 Y123.496646 Z-0.062500 I1.250000 J0.000000 F400.000000
G03 X71.781117 Y123.091117 Z-0.062500 I1.154849 J0.478354
G03 X72.186646 Y122.820151 Z-0.062500 I0.883883 J0.883883
G03 X72.665000 Y122.725000 Z-0.062500 I0.478354 J1.154849
G03 X73.143354 Y122.820151 Z-0.062500 I-0.000000 J1.250000
G03 X73.548883 Y123.091117 Z-0.062500 I-0.478354 J1.154849
G03 X73.819849 Y123.496646 Z-0.062500 I-0.883883 J0.883883
G03 X73.915000 Y123.975000 Z-0.062500 I-1.154849 J0.478354
G03 X73.819849 Y124.453354 Z-0.062500 I-1.250000 J0.000000
G03 X73.548883 Y124.858883 Z-0.062500 I-1.154849 J-0.478354
G03 X73.143354 Y125.129849 Z-0.062500 I-0.883883 J-0.883883
G03 X72.665000 Y125.225000 Z-0.062500 I-0.478354 J-1.154849
G03 X72.186646 Y125.129849 Z-0.062500 I0.000000 J-1.250000
G03 X71.781117 Y124.858883 Z-0.062500 I0.478354 J-1.154849
G03 X71.510151 Y124.453354 Z-0.062500 I0.883883 J-0.883883
G03 X71.415000 Y123.975000 Z-0.062500 I1.154849 J-0.478354
G01 X71.415000 Y123.975000 Z-0.062500
G00 Z2.500000

(End cutting path id: circle19)


(Start cutting path id: path119)
(Change tool to Default tool)

G00 Z2.500000
G00 X66.315000 Y126.515000

G01 Z-0.062500 F100.0(Penetrate)
G01 X65.715000 Y125.915000 Z-0.062500 F400.000000
G00 Z2.500000

(End cutting path id: path119)


(Start cutting path id: path120)
(Change tool to Default tool)

G00 Z2.500000
G00 X65.715000 Y125.915000

G01 Z-0.062500 F100.0(Penetrate)
G01 X65.715000 Y118.775000 Z-0.062500 F400.000000
G00 Z2.500000

(End cutting path id: path120)


(Start cutting path id: path55)
(Change tool to Default tool)

G00 Z2.500000
G00 X66.090000 Y118.325000

G01 Z-0.062500 F100.0(Penetrate)
G01 X66.176100 Y118.342100 Z-0.062500 F400.000000
G01 X66.249100 Y118.390900 Z-0.062500
G01 X66.297900 Y118.463900 Z-0.062500
G01 X66.315000 Y118.550000 Z-0.062500
G01 X66.315000 Y119.000000 Z-0.062500
G01 X66.297900 Y119.086100 Z-0.062500
G01 X66.249100 Y119.159100 Z-0.062500
G01 X66.176100 Y119.207900 Z-0.062500
G01 X66.090000 Y119.225000 Z-0.062500
G01 X65.340000 Y119.225000 Z-0.062500
G01 X65.253900 Y119.207900 Z-0.062500
G01 X65.180900 Y119.159100 Z-0.062500
G01 X65.132100 Y119.086100 Z-0.062500
G01 X65.115000 Y119.000000 Z-0.062500
G01 X65.115000 Y118.550000 Z-0.062500
G01 X65.132100 Y118.463900 Z-0.062500
G01 X65.180900 Y118.390900 Z-0.062500
G01 X65.253900 Y118.342100 Z-0.062500
G01 X65.340000 Y118.325000 Z-0.062500
G01 X66.090000 Y118.325000 Z-0.062500
G00 Z2.500000

(End cutting path id: path55)


(Start cutting path id: path64)
(Change tool to Default tool)

G00 Z2.500000
G00 X65.715000 Y115.475000

G01 Z-0.062500 F100.0(Penetrate)
G01 X59.208000 Y115.475000 Z-0.062500 F400.000000
G00 Z2.500000

(End cutting path id: path64)


(Start cutting path id: path65)
(Change tool to Default tool)

G00 Z2.500000
G00 X59.208000 Y115.475000

G01 Z-0.062500 F100.0(Penetrate)
G01 X57.414000 Y117.269000 Z-0.062500 F400.000000
G00 Z2.500000

(End cutting path id: path65)


(Start cutting path id: path67)
(Change tool to Default tool)

G00 Z2.500000
G00 X57.414000 Y117.269000

G01 Z-0.062500 F100.0(Penetrate)
G01 X57.414000 Y127.174000 Z-0.062500 F400.000000
G00 Z2.500000

(End cutting path id: path67)


(Start cutting path id: path66)
(Change tool to Default tool)

G00 Z2.500000
G00 X57.414000 Y127.174000

G01 Z-0.062500 F100.0(Penetrate)
G01 X73.215000 Y142.975000 Z-0.062500 F400.000000
G00 Z2.500000

(End cutting path id: path66)


(Start cutting path id: path68)
(Change tool to Default tool)

G00 Z2.500000
G00 X73.215000 Y142.975000

G01 Z-0.062500 F100.0(Penetrate)
G01 X78.475000 Y142.975000 Z-0.062500 F400.000000
G00 Z2.500000

(End cutting path id: path68)


(Start cutting path id: path30)
(Change tool to Default tool)

G00 Z2.500000
G00 X92.865000 Y142.125000

G01 Z-0.062500 F100.0(Penetrate)
G01 X94.565000 Y142.125000 Z-0.062500 F400.000000
G01 X94.565000 Y143.825000 Z-0.062500
G01 X92.865000 Y143.825000 Z-0.062500
G01 X92.865000 Y142.125000 Z-0.062500
G00 Z2.500000

(End cutting path id: path30)


(Start cutting path id: path96)
(Change tool to Default tool)

G00 Z2.500000
G00 X93.715000 Y142.975000

G01 Z-0.062500 F100.0(Penetrate)
G01 X93.715000 Y141.025000 Z-0.062500 F400.000000
G00 Z2.500000

(End cutting path id: path96)


(Start cutting path id: path97)
(Change tool to Default tool)

G00 Z2.500000
G00 X93.715000 Y141.025000

G01 Z-0.062500 F100.0(Penetrate)
G01 X110.765000 Y123.975000 Z-0.062500 F400.000000
G00 Z2.500000

(End cutting path id: path97)


(Start cutting path id: path125)
(Change tool to Default tool)

G00 Z2.500000
G00 X110.409000 Y123.619000

G01 Z-0.062500 F100.0(Penetrate)
G01 X110.409000 Y67.181000 Z-0.062500 F400.000000
G00 Z2.500000

(End cutting path id: path125)


(Start cutting path id: circle6)
(Change tool to Default tool)

G00 Z2.500000
G00 X109.515000 Y66.825000

G01 Z-0.062500 F100.0(Penetrate)
G03 X109.610151 Y66.346646 Z-0.062500 I1.250000 J0.000000 F400.000000
G03 X109.881117 Y65.941117 Z-0.062500 I1.154849 J0.478354
G03 X110.286646 Y65.670151 Z-0.062500 I0.883883 J0.883883
G03 X110.765000 Y65.575000 Z-0.062500 I0.478354 J1.154849
G03 X111.243354 Y65.670151 Z-0.062500 I0.000000 J1.250000
G03 X111.648883 Y65.941117 Z-0.062500 I-0.478354 J1.154849
G03 X111.919849 Y66.346646 Z-0.062500 I-0.883883 J0.883883
G03 X112.015000 Y66.825000 Z-0.062500 I-1.154849 J0.478354
G03 X111.919849 Y67.303354 Z-0.062500 I-1.250000 J0.000000
G03 X111.648883 Y67.708883 Z-0.062500 I-1.154849 J-0.478354
G03 X111.243354 Y67.979849 Z-0.062500 I-0.883883 J-0.883883
G03 X110.765000 Y68.075000 Z-0.062500 I-0.478354 J-1.154849
G03 X110.286646 Y67.979849 Z-0.062500 I-0.000000 J-1.250000
G03 X109.881117 Y67.708883 Z-0.062500 I0.478354 J-1.154849
G03 X109.610151 Y67.303354 Z-0.062500 I0.883883 J-0.883883
G03 X109.515000 Y66.825000 Z-0.062500 I1.154849 J-0.478354
G01 X109.515000 Y66.825000 Z-0.062500
G00 Z2.500000

(End cutting path id: circle6)


(Start cutting path id: path90)
(Change tool to Default tool)

G00 Z2.500000
G00 X113.661000 Y63.611500

G01 Z-0.062500 F100.0(Penetrate)
G01 X113.661000 Y126.931000 Z-0.062500 F400.000000
G00 Z2.500000

(End cutting path id: path90)


(Start cutting path id: path92)
(Change tool to Default tool)

G00 Z2.500000
G00 X113.661000 Y126.931000

G01 Z-0.062500 F100.0(Penetrate)
G01 X95.666000 Y144.926000 Z-0.062500 F400.000000
G00 Z2.500000

(End cutting path id: path92)


(Start cutting path id: path69)
(Change tool to Default tool)

G00 Z2.500000
G00 X95.666000 Y144.926000

G01 Z-0.062500 F100.0(Penetrate)
G01 X86.843900 Y144.926000 Z-0.062500 F400.000000
G00 Z2.500000

(End cutting path id: path69)


(Start cutting path id: circle24)
(Change tool to Default tool)

G00 Z2.500000
G00 X103.165000 Y126.515001

G01 Z-0.062500 F100.0(Penetrate)
G03 X103.260151 Y126.036647 Z-0.062500 I1.250000 J-0.000000 F400.000000
G03 X103.531117 Y125.631118 Z-0.062500 I1.154849 J0.478354
G03 X103.936646 Y125.360152 Z-0.062500 I0.883883 J0.883883
G03 X104.415000 Y125.265001 Z-0.062500 I0.478354 J1.154849
G03 X104.893354 Y125.360152 Z-0.062500 I-0.000000 J1.250000
G03 X105.298883 Y125.631118 Z-0.062500 I-0.478354 J1.154849
G03 X105.569849 Y126.036647 Z-0.062500 I-0.883883 J0.883883
G03 X105.665000 Y126.515001 Z-0.062500 I-1.154849 J0.478354
G03 X105.569849 Y126.993355 Z-0.062500 I-1.250000 J0.000000
G03 X105.298883 Y127.398884 Z-0.062500 I-1.154849 J-0.478354
G03 X104.893354 Y127.669850 Z-0.062500 I-0.883883 J-0.883883
G03 X104.415000 Y127.765001 Z-0.062500 I-0.478354 J-1.154849
G03 X103.936646 Y127.669850 Z-0.062500 I0.000000 J-1.250000
G03 X103.531117 Y127.398884 Z-0.062500 I0.478354 J-1.154849
G03 X103.260151 Y126.993355 Z-0.062500 I0.883883 J-0.883883
G03 X103.165000 Y126.515001 Z-0.062500 I1.154849 J-0.478354
G01 X103.165000 Y126.515001 Z-0.062500
G00 Z2.500000

(End cutting path id: circle24)


(Start cutting path id: path126)
(Change tool to Default tool)

G00 Z2.500000
G00 X103.815000 Y125.915000

G01 Z-0.062500 F100.0(Penetrate)
G01 X103.815000 Y118.775000 Z-0.062500 F400.000000
G00 Z2.500000

(End cutting path id: path126)


(Start cutting path id: path28)
(Change tool to Default tool)

G00 Z2.500000
G00 X104.190000 Y118.325000

G01 Z-0.062500 F100.0(Penetrate)
G01 X104.276100 Y118.342100 Z-0.062500 F400.000000
G01 X104.349100 Y118.390900 Z-0.062500
G01 X104.397900 Y118.463900 Z-0.062500
G01 X104.415000 Y118.550000 Z-0.062500
G01 X104.415000 Y119.000000 Z-0.062500
G01 X104.397900 Y119.086100 Z-0.062500
G01 X104.349100 Y119.159100 Z-0.062500
G01 X104.276100 Y119.207900 Z-0.062500
G01 X104.190000 Y119.225000 Z-0.062500
G01 X103.440000 Y119.225000 Z-0.062500
G01 X103.353900 Y119.207900 Z-0.062500
G01 X103.280900 Y119.159100 Z-0.062500
G01 X103.232100 Y119.086100 Z-0.062500
G01 X103.215000 Y119.000000 Z-0.062500
G01 X103.215000 Y118.550000 Z-0.062500
G01 X103.232100 Y118.463900 Z-0.062500
G01 X103.280900 Y118.390900 Z-0.062500
G01 X103.353900 Y118.342100 Z-0.062500
G01 X103.440000 Y118.325000 Z-0.062500
G01 X104.190000 Y118.325000 Z-0.062500
G00 Z2.500000

(End cutting path id: path28)


(Start cutting path id: path123)
(Change tool to Default tool)

G00 Z2.500000
G00 X103.815000 Y115.475000

G01 Z-0.062500 F100.0(Penetrate)
G01 X65.715000 Y115.475000 Z-0.062500 F400.000000
G00 Z2.500000

(End cutting path id: path123)


(Start cutting path id: path56)
(Change tool to Default tool)

G00 Z2.500000
G00 X66.090000 Y115.025000

G01 Z-0.062500 F100.0(Penetrate)
G01 X66.176100 Y115.042100 Z-0.062500 F400.000000
G01 X66.249100 Y115.090900 Z-0.062500
G01 X66.297900 Y115.163900 Z-0.062500
G01 X66.315000 Y115.250000 Z-0.062500
G01 X66.315000 Y115.700000 Z-0.062500
G01 X66.297900 Y115.786100 Z-0.062500
G01 X66.249100 Y115.859100 Z-0.062500
G01 X66.176100 Y115.907900 Z-0.062500
G01 X66.090000 Y115.925000 Z-0.062500
G01 X65.340000 Y115.925000 Z-0.062500
G01 X65.253900 Y115.907900 Z-0.062500
G01 X65.180900 Y115.859100 Z-0.062500
G01 X65.132100 Y115.786100 Z-0.062500
G01 X65.115000 Y115.700000 Z-0.062500
G01 X65.115000 Y115.250000 Z-0.062500
G01 X65.132100 Y115.163900 Z-0.062500
G01 X65.180900 Y115.090900 Z-0.062500
G01 X65.253900 Y115.042100 Z-0.062500
G01 X65.340000 Y115.025000 Z-0.062500
G01 X66.090000 Y115.025000 Z-0.062500
G00 Z2.500000

(End cutting path id: path56)


(Start cutting path id: path112)
(Change tool to Default tool)

G00 Z2.500000
G00 X66.315000 Y107.465000

G01 Z-0.062500 F100.0(Penetrate)
G01 X65.715000 Y106.865000 Z-0.062500 F400.000000
G00 Z2.500000

(End cutting path id: path112)


(Start cutting path id: path113)
(Change tool to Default tool)

G00 Z2.500000
G00 X65.715000 Y106.865000

G01 Z-0.062500 F100.0(Penetrate)
G01 X65.715000 Y99.725000 Z-0.062500 F400.000000
G00 Z2.500000

(End cutting path id: path113)


(Start cutting path id: path53)
(Change tool to Default tool)

G00 Z2.500000
G00 X66.090000 Y99.275000

G01 Z-0.062500 F100.0(Penetrate)
G01 X66.176100 Y99.292100 Z-0.062500 F400.000000
G01 X66.249100 Y99.340900 Z-0.062500
G01 X66.297900 Y99.413900 Z-0.062500
G01 X66.315000 Y99.500000 Z-0.062500
G01 X66.315000 Y99.950000 Z-0.062500
G01 X66.297900 Y100.036100 Z-0.062500
G01 X66.249100 Y100.109100 Z-0.062500
G01 X66.176100 Y100.157900 Z-0.062500
G01 X66.090000 Y100.175000 Z-0.062500
G01 X65.340000 Y100.175000 Z-0.062500
G01 X65.253900 Y100.157900 Z-0.062500
G01 X65.180900 Y100.109100 Z-0.062500
G01 X65.132100 Y100.036100 Z-0.062500
G01 X65.115000 Y99.950000 Z-0.062500
G01 X65.115000 Y99.500000 Z-0.062500
G01 X65.132100 Y99.413900 Z-0.062500
G01 X65.180900 Y99.340900 Z-0.062500
G01 X65.253900 Y99.292100 Z-0.062500
G01 X65.340000 Y99.275000 Z-0.062500
G01 X66.090000 Y99.275000 Z-0.062500
G00 Z2.500000

(End cutting path id: path53)


(Start cutting path id: circle13)
(Change tool to Default tool)

G00 Z2.500000
G00 X71.415000 Y104.924997

G01 Z-0.062500 F100.0(Penetrate)
G03 X71.510151 Y104.446643 Z-0.062500 I1.250000 J0.000000 F400.000000
G03 X71.781117 Y104.041114 Z-0.062500 I1.154849 J0.478354
G03 X72.186646 Y103.770148 Z-0.062500 I0.883883 J0.883883
G03 X72.665000 Y103.674997 Z-0.062500 I0.478354 J1.154849
G03 X73.143354 Y103.770148 Z-0.062500 I-0.000000 J1.250000
G03 X73.548883 Y104.041114 Z-0.062500 I-0.478354 J1.154849
G03 X73.819849 Y104.446643 Z-0.062500 I-0.883883 J0.883883
G03 X73.915000 Y104.924997 Z-0.062500 I-1.154849 J0.478354
G03 X73.819849 Y105.403351 Z-0.062500 I-1.250000 J-0.000000
G03 X73.548883 Y105.808880 Z-0.062500 I-1.154849 J-0.478354
G03 X73.143354 Y106.079846 Z-0.062500 I-0.883883 J-0.883883
G03 X72.665000 Y106.174997 Z-0.062500 I-0.478354 J-1.154849
G03 X72.186646 Y106.079846 Z-0.062500 I0.000000 J-1.250000
G03 X71.781117 Y105.808880 Z-0.062500 I0.478354 J-1.154849
G03 X71.510151 Y105.403351 Z-0.062500 I0.883883 J-0.883883
G03 X71.415000 Y104.924997 Z-0.062500 I1.154849 J-0.478354
G01 X71.415000 Y104.924997 Z-0.062500
G00 Z2.500000

(End cutting path id: circle13)


(Start cutting path id: circle14)
(Change tool to Default tool)

G00 Z2.500000
G00 X65.065010 Y107.464998

G01 Z-0.062500 F100.0(Penetrate)
G03 X65.160161 Y106.986644 Z-0.062500 I1.250000 J0.000000 F400.000000
G03 X65.431127 Y106.581115 Z-0.062500 I1.154849 J0.478354
G03 X65.836656 Y106.310149 Z-0.062500 I0.883883 J0.883883
G03 X66.315010 Y106.214998 Z-0.062500 I0.478354 J1.154849
G03 X66.793364 Y106.310149 Z-0.062500 I-0.000000 J1.250000
G03 X67.198893 Y106.581115 Z-0.062500 I-0.478354 J1.154849
G03 X67.469859 Y106.986644 Z-0.062500 I-0.883883 J0.883883
G03 X67.565010 Y107.464998 Z-0.062500 I-1.154849 J0.478354
G03 X67.469859 Y107.943352 Z-0.062500 I-1.250000 J-0.000000
G03 X67.198893 Y108.348881 Z-0.062500 I-1.154849 J-0.478354
G03 X66.793364 Y108.619847 Z-0.062500 I-0.883883 J-0.883883
G03 X66.315010 Y108.714998 Z-0.062500 I-0.478354 J-1.154849
G03 X65.836656 Y108.619847 Z-0.062500 I0.000000 J-1.250000
G03 X65.431127 Y108.348881 Z-0.062500 I0.478354 J-1.154849
G03 X65.160161 Y107.943352 Z-0.062500 I0.883883 J-0.883883
G03 X65.065010 Y107.464998 Z-0.062500 I1.154849 J-0.478354
G01 X65.065010 Y107.464998 Z-0.062500
G00 Z2.500000

(End cutting path id: circle14)


(Start cutting path id: circle20)
(Change tool to Default tool)

G00 Z2.500000
G00 X65.065010 Y126.515001

G01 Z-0.062500 F100.0(Penetrate)
G03 X65.160161 Y126.036647 Z-0.062500 I1.250000 J-0.000000 F400.000000
G03 X65.431127 Y125.631118 Z-0.062500 I1.154849 J0.478354
G03 X65.836656 Y125.360152 Z-0.062500 I0.883883 J0.883883
G03 X66.315010 Y125.265001 Z-0.062500 I0.478354 J1.154849
G03 X66.793364 Y125.360152 Z-0.062500 I-0.000000 J1.250000
G03 X67.198893 Y125.631118 Z-0.062500 I-0.478354 J1.154849
G03 X67.469859 Y126.036647 Z-0.062500 I-0.883883 J0.883883
G03 X67.565010 Y126.515001 Z-0.062500 I-1.154849 J0.478354
G03 X67.469859 Y126.993355 Z-0.062500 I-1.250000 J0.000000
G03 X67.198893 Y127.398884 Z-0.062500 I-1.154849 J-0.478354
G03 X66.793364 Y127.669850 Z-0.062500 I-0.883883 J-0.883883
G03 X66.315010 Y127.765001 Z-0.062500 I-0.478354 J-1.154849
G03 X65.836656 Y127.669850 Z-0.062500 I0.000000 J-1.250000
G03 X65.431127 Y127.398884 Z-0.062500 I0.478354 J-1.154849
G03 X65.160161 Y126.993355 Z-0.062500 I0.883883 J-0.883883
G03 X65.065010 Y126.515001 Z-0.062500 I1.154849 J-0.478354
G01 X65.065010 Y126.515001 Z-0.062500
G00 Z2.500000

(End cutting path id: circle20)


(Start cutting path id: path124)
(Change tool to Default tool)

G00 Z2.500000
G00 X104.415000 Y126.515000

G01 Z-0.062500 F100.0(Penetrate)
G01 X103.815000 Y125.915000 Z-0.062500 F400.000000
G00 Z2.500000

(End cutting path id: path124)


(Start cutting path id: circle23)
(Change tool to Default tool)

G00 Z2.500000
G00 X109.515000 Y123.975000

G01 Z-0.062500 F100.0(Penetrate)
G03 X109.610151 Y123.496646 Z-0.062500 I1.250000 J0.000000 F400.000000
G03 X109.881117 Y123.091117 Z-0.062500 I1.154849 J0.478354
G03 X110.286646 Y122.820151 Z-0.062500 I0.883883 J0.883883
G03 X110.765000 Y122.725000 Z-0.062500 I0.478354 J1.154849
G03 X111.243354 Y122.820151 Z-0.062500 I-0.000000 J1.250000
G03 X111.648883 Y123.091117 Z-0.062500 I-0.478354 J1.154849
G03 X111.919849 Y123.496646 Z-0.062500 I-0.883883 J0.883883
G03 X112.015000 Y123.975000 Z-0.062500 I-1.154849 J0.478354
G03 X111.919849 Y124.453354 Z-0.062500 I-1.250000 J0.000000
G03 X111.648883 Y124.858883 Z-0.062500 I-1.154849 J-0.478354
G03 X111.243354 Y125.129849 Z-0.062500 I-0.883883 J-0.883883
G03 X110.765000 Y125.225000 Z-0.062500 I-0.478354 J-1.154849
G03 X110.286646 Y125.129849 Z-0.062500 I0.000000 J-1.250000
G03 X109.881117 Y124.858883 Z-0.062500 I0.478354 J-1.154849
G03 X109.610151 Y124.453354 Z-0.062500 I0.883883 J-0.883883
G03 X109.515000 Y123.975000 Z-0.062500 I1.154849 J-0.478354
G01 X109.515000 Y123.975000 Z-0.062500
G00 Z2.500000

(End cutting path id: circle23)


(Start cutting path id: path29)
(Change tool to Default tool)

G00 Z2.500000
G00 X104.190000 Y115.025000

G01 Z-0.062500 F100.0(Penetrate)
G01 X104.276100 Y115.042100 Z-0.062500 F400.000000
G01 X104.349100 Y115.090900 Z-0.062500
G01 X104.397900 Y115.163900 Z-0.062500
G01 X104.415000 Y115.250000 Z-0.062500
G01 X104.415000 Y115.700000 Z-0.062500
G01 X104.397900 Y115.786100 Z-0.062500
G01 X104.349100 Y115.859100 Z-0.062500
G01 X104.276100 Y115.907900 Z-0.062500
G01 X104.190000 Y115.925000 Z-0.062500
G01 X103.440000 Y115.925000 Z-0.062500
G01 X103.353900 Y115.907900 Z-0.062500
G01 X103.280900 Y115.859100 Z-0.062500
G01 X103.232100 Y115.786100 Z-0.062500
G01 X103.215000 Y115.700000 Z-0.062500
G01 X103.215000 Y115.250000 Z-0.062500
G01 X103.232100 Y115.163900 Z-0.062500
G01 X103.280900 Y115.090900 Z-0.062500
G01 X103.353900 Y115.042100 Z-0.062500
G01 X103.440000 Y115.025000 Z-0.062500
G01 X104.190000 Y115.025000 Z-0.062500
G00 Z2.500000

(End cutting path id: path29)


(Start cutting path id: path117)
(Change tool to Default tool)

G00 Z2.500000
G00 X104.415000 Y107.465000

G01 Z-0.062500 F100.0(Penetrate)
G01 X103.815000 Y106.865000 Z-0.062500 F400.000000
G00 Z2.500000

(End cutting path id: path117)


(Start cutting path id: path118)
(Change tool to Default tool)

G00 Z2.500000
G00 X103.815000 Y106.865000

G01 Z-0.062500 F100.0(Penetrate)
G01 X103.815000 Y99.725000 Z-0.062500 F400.000000
G00 Z2.500000

(End cutting path id: path118)


(Start cutting path id: path35)
(Change tool to Default tool)

G00 Z2.500000
G00 X104.190000 Y99.275000

G01 Z-0.062500 F100.0(Penetrate)
G01 X104.276100 Y99.292100 Z-0.062500 F400.000000
G01 X104.349100 Y99.340900 Z-0.062500
G01 X104.397900 Y99.413900 Z-0.062500
G01 X104.415000 Y99.500000 Z-0.062500
G01 X104.415000 Y99.950000 Z-0.062500
G01 X104.397900 Y100.036100 Z-0.062500
G01 X104.349100 Y100.109100 Z-0.062500
G01 X104.276100 Y100.157900 Z-0.062500
G01 X104.190000 Y100.175000 Z-0.062500
G01 X103.440000 Y100.175000 Z-0.062500
G01 X103.353900 Y100.157900 Z-0.062500
G01 X103.280900 Y100.109100 Z-0.062500
G01 X103.232100 Y100.036100 Z-0.062500
G01 X103.215000 Y99.950000 Z-0.062500
G01 X103.215000 Y99.500000 Z-0.062500
G01 X103.232100 Y99.413900 Z-0.062500
G01 X103.280900 Y99.340900 Z-0.062500
G01 X103.353900 Y99.292100 Z-0.062500
G01 X103.440000 Y99.275000 Z-0.062500
G01 X104.190000 Y99.275000 Z-0.062500
G00 Z2.500000

(End cutting path id: path35)


(Start cutting path id: path116)
(Change tool to Default tool)

G00 Z2.500000
G00 X103.815000 Y96.425000

G01 Z-0.062500 F100.0(Penetrate)
G01 X65.715000 Y96.425000 Z-0.062500 F400.000000
G00 Z2.500000

(End cutting path id: path116)


(Start cutting path id: circle12)
(Change tool to Default tool)

G00 Z2.500000
G00 X103.165000 Y88.415000

G01 Z-0.062500 F100.0(Penetrate)
G03 X103.260151 Y87.936646 Z-0.062500 I1.250000 J-0.000000 F400.000000
G03 X103.531117 Y87.531117 Z-0.062500 I1.154849 J0.478354
G03 X103.936646 Y87.260151 Z-0.062500 I0.883883 J0.883883
G03 X104.415000 Y87.165000 Z-0.062500 I0.478354 J1.154849
G03 X104.893354 Y87.260151 Z-0.062500 I-0.000000 J1.250000
G03 X105.298883 Y87.531117 Z-0.062500 I-0.478354 J1.154849
G03 X105.569849 Y87.936646 Z-0.062500 I-0.883883 J0.883883
G03 X105.665000 Y88.415000 Z-0.062500 I-1.154849 J0.478354
G03 X105.569849 Y88.893354 Z-0.062500 I-1.250000 J0.000000
G03 X105.298883 Y89.298883 Z-0.062500 I-1.154849 J-0.478354
G03 X104.893354 Y89.569849 Z-0.062500 I-0.883883 J-0.883883
G03 X104.415000 Y89.665000 Z-0.062500 I-0.478354 J-1.154849
G03 X103.936646 Y89.569849 Z-0.062500 I-0.000000 J-1.250000
G03 X103.531117 Y89.298883 Z-0.062500 I0.478354 J-1.154849
G03 X103.260151 Y88.893354 Z-0.062500 I0.883883 J-0.883883
G03 X103.165000 Y88.415000 Z-0.062500 I1.154849 J-0.478354
G01 X103.165000 Y88.415000 Z-0.062500
G00 Z2.500000

(End cutting path id: circle12)


(Start cutting path id: path111)
(Change tool to Default tool)

G00 Z2.500000
G00 X103.815000 Y87.815000

G01 Z-0.062500 F100.0(Penetrate)
G01 X103.815000 Y80.675000 Z-0.062500 F400.000000
G00 Z2.500000

(End cutting path id: path111)


(Start cutting path id: path37)
(Change tool to Default tool)

G00 Z2.500000
G00 X104.190000 Y80.225000

G01 Z-0.062500 F100.0(Penetrate)
G01 X104.276100 Y80.242100 Z-0.062500 F400.000000
G01 X104.349100 Y80.290900 Z-0.062500
G01 X104.397900 Y80.363900 Z-0.062500
G01 X104.415000 Y80.450000 Z-0.062500
G01 X104.415000 Y80.900000 Z-0.062500
G01 X104.397900 Y80.986100 Z-0.062500
G01 X104.349100 Y81.059100 Z-0.062500
G01 X104.276100 Y81.107900 Z-0.062500
G01 X104.190000 Y81.125000 Z-0.062500
G01 X103.440000 Y81.125000 Z-0.062500
G01 X103.353900 Y81.107900 Z-0.062500
G01 X103.280900 Y81.059100 Z-0.062500
G01 X103.232100 Y80.986100 Z-0.062500
G01 X103.215000 Y80.900000 Z-0.062500
G01 X103.215000 Y80.450000 Z-0.062500
G01 X103.232100 Y80.363900 Z-0.062500
G01 X103.280900 Y80.290900 Z-0.062500
G01 X103.353900 Y80.242100 Z-0.062500
G01 X103.440000 Y80.225000 Z-0.062500
G01 X104.190000 Y80.225000 Z-0.062500
G00 Z2.500000

(End cutting path id: path37)


(Start cutting path id: path99)
(Change tool to Default tool)

G00 Z2.500000
G00 X103.815000 Y77.375000

G01 Z-0.062500 F100.0(Penetrate)
G01 X65.715000 Y77.375000 Z-0.062500 F400.000000
G00 Z2.500000

(End cutting path id: path99)


(Start cutting path id: circle5)
(Change tool to Default tool)

G00 Z2.500000
G00 X103.165000 Y69.365000

G01 Z-0.062500 F100.0(Penetrate)
G03 X103.260151 Y68.886646 Z-0.062500 I1.250000 J-0.000000 F400.000000
G03 X103.531117 Y68.481117 Z-0.062500 I1.154849 J0.478354
G03 X103.936646 Y68.210151 Z-0.062500 I0.883883 J0.883883
G03 X104.415000 Y68.115000 Z-0.062500 I0.478354 J1.154849
G03 X104.893354 Y68.210151 Z-0.062500 I0.000000 J1.250000
G03 X105.298883 Y68.481117 Z-0.062500 I-0.478354 J1.154849
G03 X105.569849 Y68.886646 Z-0.062500 I-0.883883 J0.883883
G03 X105.665000 Y69.365000 Z-0.062500 I-1.154849 J0.478354
G03 X105.569849 Y69.843354 Z-0.062500 I-1.250000 J0.000000
G03 X105.298883 Y70.248883 Z-0.062500 I-1.154849 J-0.478354
G03 X104.893354 Y70.519849 Z-0.062500 I-0.883883 J-0.883883
G03 X104.415000 Y70.615000 Z-0.062500 I-0.478354 J-1.154849
G03 X103.936646 Y70.519849 Z-0.062500 I-0.000000 J-1.250000
G03 X103.531117 Y70.248883 Z-0.062500 I0.478354 J-1.154849
G03 X103.260151 Y69.843354 Z-0.062500 I0.883883 J-0.883883
G03 X103.165000 Y69.365000 Z-0.062500 I1.154849 J-0.478354
G01 X103.165000 Y69.365000 Z-0.062500
G00 Z2.500000

(End cutting path id: circle5)


(Start cutting path id: path101)
(Change tool to Default tool)

G00 Z2.500000
G00 X103.815000 Y68.765000

G01 Z-0.062500 F100.0(Penetrate)
G01 X103.815000 Y61.625000 Z-0.062500 F400.000000
G00 Z2.500000

(End cutting path id: path101)


(Start cutting path id: path39)
(Change tool to Default tool)

G00 Z2.500000
G00 X104.190000 Y61.175000

G01 Z-0.062500 F100.0(Penetrate)
G01 X104.276100 Y61.192100 Z-0.062500 F400.000000
G01 X104.349100 Y61.240900 Z-0.062500
G01 X104.397900 Y61.313900 Z-0.062500
G01 X104.415000 Y61.400000 Z-0.062500
G01 X104.415000 Y61.850000 Z-0.062500
G01 X104.397900 Y61.936100 Z-0.062500
G01 X104.349100 Y62.009100 Z-0.062500
G01 X104.276100 Y62.057900 Z-0.062500
G01 X104.190000 Y62.075000 Z-0.062500
G01 X103.440000 Y62.075000 Z-0.062500
G01 X103.353900 Y62.057900 Z-0.062500
G01 X103.280900 Y62.009100 Z-0.062500
G01 X103.232100 Y61.936100 Z-0.062500
G01 X103.215000 Y61.850000 Z-0.062500
G01 X103.215000 Y61.400000 Z-0.062500
G01 X103.232100 Y61.313900 Z-0.062500
G01 X103.280900 Y61.240900 Z-0.062500
G01 X103.353900 Y61.192100 Z-0.062500
G01 X103.440000 Y61.175000 Z-0.062500
G01 X104.190000 Y61.175000 Z-0.062500
G00 Z2.500000

(End cutting path id: path39)


(Start cutting path id: path98)
(Change tool to Default tool)

G00 Z2.500000
G00 X103.815000 Y58.325000

G01 Z-0.062500 F100.0(Penetrate)
G01 X65.715000 Y58.325000 Z-0.062500 F400.000000
G00 Z2.500000

(End cutting path id: path98)


(Start cutting path id: path89)
(Change tool to Default tool)

G00 Z2.500000
G00 X103.815000 Y58.325000

G01 Z-0.062500 F100.0(Penetrate)
G01 X108.374500 Y58.325000 Z-0.062500 F400.000000
G00 Z2.500000

(End cutting path id: path89)


(Start cutting path id: path91)
(Change tool to Default tool)

G00 Z2.500000
G00 X108.374500 Y58.325000

G01 Z-0.062500 F100.0(Penetrate)
G01 X113.661000 Y63.611500 Z-0.062500 F400.000000
G00 Z2.500000

(End cutting path id: path91)


(Start cutting path id: path100)
(Change tool to Default tool)

G00 Z2.500000
G00 X104.415000 Y69.365000

G01 Z-0.062500 F100.0(Penetrate)
G01 X103.815000 Y68.765000 Z-0.062500 F400.000000
G00 Z2.500000

(End cutting path id: path100)


(Start cutting path id: path38)
(Change tool to Default tool)

G00 Z2.500000
G00 X104.190000 Y76.925000

G01 Z-0.062500 F100.0(Penetrate)
G01 X104.276100 Y76.942100 Z-0.062500 F400.000000
G01 X104.349100 Y76.990900 Z-0.062500
G01 X104.397900 Y77.063900 Z-0.062500
G01 X104.415000 Y77.150000 Z-0.062500
G01 X104.415000 Y77.600000 Z-0.062500
G01 X104.397900 Y77.686100 Z-0.062500
G01 X104.349100 Y77.759100 Z-0.062500
G01 X104.276100 Y77.807900 Z-0.062500
G01 X104.190000 Y77.825000 Z-0.062500
G01 X103.440000 Y77.825000 Z-0.062500
G01 X103.353900 Y77.807900 Z-0.062500
G01 X103.280900 Y77.759100 Z-0.062500
G01 X103.232100 Y77.686100 Z-0.062500
G01 X103.215000 Y77.600000 Z-0.062500
G01 X103.215000 Y77.150000 Z-0.062500
G01 X103.232100 Y77.063900 Z-0.062500
G01 X103.280900 Y76.990900 Z-0.062500
G01 X103.353900 Y76.942100 Z-0.062500
G01 X103.440000 Y76.925000 Z-0.062500
G01 X104.190000 Y76.925000 Z-0.062500
G00 Z2.500000

(End cutting path id: path38)


(Start cutting path id: circle11)
(Change tool to Default tool)

G00 Z2.500000
G00 X109.515000 Y85.875000

G01 Z-0.062500 F100.0(Penetrate)
G03 X109.610151 Y85.396646 Z-0.062500 I1.250000 J0.000000 F400.000000
G03 X109.881117 Y84.991117 Z-0.062500 I1.154849 J0.478354
G03 X110.286646 Y84.720151 Z-0.062500 I0.883883 J0.883883
G03 X110.765000 Y84.625000 Z-0.062500 I0.478354 J1.154849
G03 X111.243354 Y84.720151 Z-0.062500 I-0.000000 J1.250000
G03 X111.648883 Y84.991117 Z-0.062500 I-0.478354 J1.154849
G03 X111.919849 Y85.396646 Z-0.062500 I-0.883883 J0.883883
G03 X112.015000 Y85.875000 Z-0.062500 I-1.154849 J0.478354
G03 X111.919849 Y86.353354 Z-0.062500 I-1.250000 J-0.000000
G03 X111.648883 Y86.758883 Z-0.062500 I-1.154849 J-0.478354
G03 X111.243354 Y87.029849 Z-0.062500 I-0.883883 J-0.883883
G03 X110.765000 Y87.125000 Z-0.062500 I-0.478354 J-1.154849
G03 X110.286646 Y87.029849 Z-0.062500 I-0.000000 J-1.250000
G03 X109.881117 Y86.758883 Z-0.062500 I0.478354 J-1.154849
G03 X109.610151 Y86.353354 Z-0.062500 I0.883883 J-0.883883
G03 X109.515000 Y85.875000 Z-0.062500 I1.154849 J-0.478354
G01 X109.515000 Y85.875000 Z-0.062500
G00 Z2.500000

(End cutting path id: circle11)


(Start cutting path id: path110)
(Change tool to Default tool)

G00 Z2.500000
G00 X104.415000 Y88.415000

G01 Z-0.062500 F100.0(Penetrate)
G01 X103.815000 Y87.815000 Z-0.062500 F400.000000
G00 Z2.500000

(End cutting path id: path110)


(Start cutting path id: path36)
(Change tool to Default tool)

G00 Z2.500000
G00 X104.190000 Y95.975000

G01 Z-0.062500 F100.0(Penetrate)
G01 X104.276100 Y95.992100 Z-0.062500 F400.000000
G01 X104.349100 Y96.040900 Z-0.062500
G01 X104.397900 Y96.113900 Z-0.062500
G01 X104.415000 Y96.200000 Z-0.062500
G01 X104.415000 Y96.650000 Z-0.062500
G01 X104.397900 Y96.736100 Z-0.062500
G01 X104.349100 Y96.809100 Z-0.062500
G01 X104.276100 Y96.857900 Z-0.062500
G01 X104.190000 Y96.875000 Z-0.062500
G01 X103.440000 Y96.875000 Z-0.062500
G01 X103.353900 Y96.857900 Z-0.062500
G01 X103.280900 Y96.809100 Z-0.062500
G01 X103.232100 Y96.736100 Z-0.062500
G01 X103.215000 Y96.650000 Z-0.062500
G01 X103.215000 Y96.200000 Z-0.062500
G01 X103.232100 Y96.113900 Z-0.062500
G01 X103.280900 Y96.040900 Z-0.062500
G01 X103.353900 Y95.992100 Z-0.062500
G01 X103.440000 Y95.975000 Z-0.062500
G01 X104.190000 Y95.975000 Z-0.062500
G00 Z2.500000

(End cutting path id: path36)


(Start cutting path id: circle18)
(Change tool to Default tool)

G00 Z2.500000
G00 X109.515000 Y104.924997

G01 Z-0.062500 F100.0(Penetrate)
G03 X109.610151 Y104.446643 Z-0.062500 I1.250000 J0.000000 F400.000000
G03 X109.881117 Y104.041114 Z-0.062500 I1.154849 J0.478354
G03 X110.286646 Y103.770148 Z-0.062500 I0.883883 J0.883883
G03 X110.765000 Y103.674997 Z-0.062500 I0.478354 J1.154849
G03 X111.243354 Y103.770148 Z-0.062500 I-0.000000 J1.250000
G03 X111.648883 Y104.041114 Z-0.062500 I-0.478354 J1.154849
G03 X111.919849 Y104.446643 Z-0.062500 I-0.883883 J0.883883
G03 X112.015000 Y104.924997 Z-0.062500 I-1.154849 J0.478354
G03 X111.919849 Y105.403351 Z-0.062500 I-1.250000 J-0.000000
G03 X111.648883 Y105.808880 Z-0.062500 I-1.154849 J-0.478354
G03 X111.243354 Y106.079846 Z-0.062500 I-0.883883 J-0.883883
G03 X110.765000 Y106.174997 Z-0.062500 I-0.478354 J-1.154849
G03 X110.286646 Y106.079846 Z-0.062500 I-0.000000 J-1.250000
G03 X109.881117 Y105.808880 Z-0.062500 I0.478354 J-1.154849
G03 X109.610151 Y105.403351 Z-0.062500 I0.883883 J-0.883883
G03 X109.515000 Y104.924997 Z-0.062500 I1.154849 J-0.478354
G01 X109.515000 Y104.924997 Z-0.062500
G00 Z2.500000

(End cutting path id: circle18)


(Start cutting path id: circle17)
(Change tool to Default tool)

G00 Z2.500000
G00 X103.165000 Y107.464998

G01 Z-0.062500 F100.0(Penetrate)
G03 X103.260151 Y106.986644 Z-0.062500 I1.250000 J0.000000 F400.000000
G03 X103.531117 Y106.581115 Z-0.062500 I1.154849 J0.478354
G03 X103.936646 Y106.310149 Z-0.062500 I0.883883 J0.883883
G03 X104.415000 Y106.214998 Z-0.062500 I0.478354 J1.154849
G03 X104.893354 Y106.310149 Z-0.062500 I-0.000000 J1.250000
G03 X105.298883 Y106.581115 Z-0.062500 I-0.478354 J1.154849
G03 X105.569849 Y106.986644 Z-0.062500 I-0.883883 J0.883883
G03 X105.665000 Y107.464998 Z-0.062500 I-1.154849 J0.478354
G03 X105.569849 Y107.943352 Z-0.062500 I-1.250000 J0.000000
G03 X105.298883 Y108.348881 Z-0.062500 I-1.154849 J-0.478354
G03 X104.893354 Y108.619847 Z-0.062500 I-0.883883 J-0.883883
G03 X104.415000 Y108.714998 Z-0.062500 I-0.478354 J-1.154849
G03 X103.936646 Y108.619847 Z-0.062500 I0.000000 J-1.250000
G03 X103.531117 Y108.348881 Z-0.062500 I0.478354 J-1.154849
G03 X103.260151 Y107.943352 Z-0.062500 I0.883883 J-0.883883
G03 X103.165000 Y107.464998 Z-0.062500 I1.154849 J-0.478354
G01 X103.165000 Y107.464998 Z-0.062500
G00 Z2.500000

(End cutting path id: circle17)


(Start cutting path id: path40)
(Change tool to Default tool)

G00 Z2.500000
G00 X104.190000 Y57.875000

G01 Z-0.062500 F100.0(Penetrate)
G01 X104.276100 Y57.892100 Z-0.062500 F400.000000
G01 X104.349100 Y57.940900 Z-0.062500
G01 X104.397900 Y58.013900 Z-0.062500
G01 X104.415000 Y58.100000 Z-0.062500
G01 X104.415000 Y58.550000 Z-0.062500
G01 X104.397900 Y58.636100 Z-0.062500
G01 X104.349100 Y58.709100 Z-0.062500
G01 X104.276100 Y58.757900 Z-0.062500
G01 X104.190000 Y58.775000 Z-0.062500
G01 X103.440000 Y58.775000 Z-0.062500
G01 X103.353900 Y58.757900 Z-0.062500
G01 X103.280900 Y58.709100 Z-0.062500
G01 X103.232100 Y58.636100 Z-0.062500
G01 X103.215000 Y58.550000 Z-0.062500
G01 X103.215000 Y58.100000 Z-0.062500
G01 X103.232100 Y58.013900 Z-0.062500
G01 X103.280900 Y57.940900 Z-0.062500
G01 X103.353900 Y57.892100 Z-0.062500
G01 X103.440000 Y57.875000 Z-0.062500
G01 X104.190000 Y57.875000 Z-0.062500
G00 Z2.500000

(End cutting path id: path40)


(Footer)
M5
G00 X0.0000 Y0.0000
M2
(Using default footer. To add your own footer create file "footer" in the output dir.)
(end)
%